!!!!SEGMENT: pl-wtm--r-1570_stefani-jozef--veni-creator.krn
!!!cenid: 18xx:2906
!!!COM: Stefani, Józef
!!!COM-rismID: pe30024097
!!!CDT: 1800/04/16-1876/03/19
!!!CNT: Polish
!!!OTL: Veni creator
!!!PDT:
!!!AGN: Sacred
!!!SMS-siglum: PL-Wtm
!!!SMS-shelfmark: R 1570
!!!SMS-shelfwork: W
!!!SMS-variant:
!!!SMS-altvar:
!!!NIFC-rismSourceID: 1001115415
!!!NIFC-islandoraID: pl-wtm:27221
!!!URL-pdf-islandora: https://repozytorium.nifc.pl/islandora/object/pl-wtm%3A27221/datastream/PDF/view
!!!URL-scan: https://polish.musicsources.pl/pl/lokalizacje/galeria/rekopisy/6371 @EN{Scan on Polish Music Herritage in Open Access Website} @PL{Skany w portalu Dziedzictwo Muzyki Polskiej w otwartym dostępie}
!!!ONB-nifc:
!!!OMD: Andantino
!!!AIN: 1 cello 1 clars 1 cor 7 empty 1 fagot 1 flt 1 oboe 2 soprn 1 tenor 1 timpa 1 tromp 1 viola
!!!key:
**kern	**dynam	**kern	**dynam	**kern	**text	**text	**dynam	**kern	**dynam	**kern	**kern	**dynam	**kern	**dynam	**kern	**dynam	**kern	**dynam	**kern	**kern	**dynam	**kern	**kern	**kern	**dynam	**kern	**dynam	**kern	**dynam	**kern	**dynam	**kern	**dynam	**kern	**dynam
*group5	*	*group5	*	*group6	*	*	*	*group6	*	*group6	*group6	*	*group5	*	*group4	*	*group4	*	*	*group3	*	*group3	*group3	*group2	*	*group1	*	*group2	*	*group1	*	*group1	*	*group1	*
*part19	*part19	*part18	*part18	*part17	*part17	*part17	*part17	*part16	*part16	*part15	*part14	*part14	*part13	*part13	*part12	*part12	*part11	*part11	*part10	*part9	*part9	*part8	*part7	*part6	*part6	*part5	*part5	*part4	*part4	*part3	*part3	*part2	*part2	*part1	*part1
*staff19	*	*staff18	*	*staff17	*staff17	*staff17	*	*staff16	*	*staff15	*staff14	*	*staff13	*	*staff12	*	*staff11	*	*staff10	*staff9	*	*staff8	*staff7	*staff6	*	*staff5	*	*staff4	*	*staff3	*	*staff2	*	*staff1	*
*	*	*	*	*	*	*	*	*	*	*	*	*	*	*	*I""Violini	*	*I""Violini	*	*	*I""Tromboni	*	*I""Tromboni	*I""Tromboni	*	*	*	*	*	*	*	*	*	*	*	*
*Iempty	*	*Icello	*	*Iempty	*	*	*	*Itenor	*	*Isoprn	*Isoprn	*	*Iviola	*	*Iempty	*	*Iempty	*	*Itimpa	*Iempty	*	*Iempty	*Iempty	*Itromp	*	*Ifagot	*	*Icor	*	*Iclars	*	*Ioboe	*	*Iflt	*
*I"C. Basſi	*	*I"Violoncelli	*	*I"Basſo	*	*	*	*I"Tenore	*	*I"2o. Soprano	*I"1o Soprano	*	*I"Viole	*	*	*	*	*	*I"Timpani	*I"	*	*I"	*I"	*I"Trombe in C	*	*I"Fagotti	*	*I"Corni in F.	*	*I"Clarinetti in C.	*	*I"Oboe	*	*I"Flauto	*
*>[A,B,C,B,D,D1,D,D2]	*	*>[A,B,C,B,D,D1,D,D2]	*	*>[A,B,C,B,D,D1,D,D2]	*	*	*	*>[A,B,C,B,D,D1,D,D2]	*	*>[A,B,C,B,D,D1,D,D2]	*>[A,B,C,B,D,D1,D,D2]	*	*>[A,B,C,B,D,D1,D,D2]	*	*>[A,B,C,B,D,D1,D,D2]	*	*>[A,B,C,B,D,D1,D,D2]	*	*>[A,B,C,B,D,D1,D,D2]	*>[A,B,C,B,D,D1,D,D2]	*	*>[A,B,C,B,D,D1,D,D2]	*	*>[A,B,C,B,D,D1,D,D2]	*	*>[A,B,C,B,D,D1,D,D2]	*	*>[A,B,C,B,D,D1,D,D2]	*	*>[A,B,C,B,D,D1,D,D2]	*	*>[A,B,C,B,D,D1,D,D2]	*	*>[A,B,C,B,D,D1,D,D2]	*
*>A	*>A	*>A	*>A	*>A	*>A	*>A	*>A	*>A	*>A	*>A	*>A	*>A	*>A	*>A	*>A	*>A	*>A	*>A	*>A	*>A	*>A	*>A	*>A	*>A	*>A	*>A	*>A	*>A	*>A	*>A	*>A	*>A	*>A	*>A	*>A
*clefF4	*	*clefF4	*	*clefF4	*	*	*	*clefC4	*	*clefG2	*clefG2	*	*clefC3	*	*clefG2	*	*clefG2	*	*clefF4	*clefF4	*	*clefC4	*clefC3	*clefG2	*	*clefF4	*	*clefG2	*	*clefG2	*	*clefG2	*	*clefG2	*
*ITrd0c0	*	*	*	*	*	*	*	*	*	*	*	*	*	*	*	*	*	*	*	*	*	*	*	*	*	*	*	*ITrd4c7	*	*	*	*	*	*	*
*k[b-]	*	*k[b-]	*	*k[b-]	*	*	*	*k[b-]	*	*k[b-]	*k[b-]	*	*k[b-]	*	*k[b-]	*	*k[b-]	*	*k[]	*k[b-]	*	*k[b-]	*k[b-]	*k[b-]	*	*k[b-]	*	*k[b-e-]	*	*k[b-]	*	*k[b-]	*	*k[b-]	*
*F:	*	*F:	*	*F:	*	*	*	*F:	*	*F:	*F:	*	*F:	*	*F:	*	*F:	*	*F:	*F:	*	*F:	*F:	*F:	*	*F:	*	*F:	*	*F:	*	*F:	*	*F:	*
*M3/4	*	*M3/4	*	*M3/4	*	*	*	*M3/4	*	*M3/4	*M3/4	*	*M3/4	*	*M3/4	*	*M3/4	*	*M3/4	*M3/4	*	*M3/4	*M3/4	*M3/4	*	*M3/4	*	*M3/4	*	*M3/4	*	*M3/4	*	*M3/4	*
*all\left or middle or right	*	*all\left or middle or right	*	*all\left or middle or right	*	*	*	*all\left or middle or right	*	*all\left or middle or right	*all\left or middle or right	*	*all\left or middle or right	*	*all\left or middle or right	*	*all\left or middle or right	*	*all\left or middle or right	*all\left or middle or right	*	*all\left or middle or right	*all\left or middle or right	*all\left or middle or right	*	*all\left or middle or right	*	*all\left or middle or right	*	*all\left or middle or right	*	*all\left or middle or right	*	*all\left or middle or right	*
*2\right	*	*2\right	*	*2\right	*	*	*	*2\right	*	*2\right	*2\right	*	*2\right	*	*2\right	*	*2\right	*	*2\right	*2\right	*	*2\right	*2\right	*2\right	*	*2\right	*	*2\right	*	*2\right	*	*2\right	*	*2\right	*
=1	=1	=1	=1	=1	=1	=1	=1	=1	=1	=1	=1	=1	=1	=1	=1	=1	=1	=1	=1	=1	=1	=1	=1	=1	=1	=1	=1	=1	=1	=1	=1	=1	=1	=1	=1
*^	*	*^	*	*	*	*	*	*	*	*	*	*	*^	*	*^	*	*^	*	*	*	*	*	*	*	*	*	*	*	*	*^	*	*	*	*	*
*	*	*	*	*	*	*	*	*	*	*	*	*	*	*	*	*^	*	*	*	*	*	*	*	*	*	*	*	*	*	*	*	*	*	*	*	*	*	*	*	*	*
!	!	!	!	!	!	!	!	!	!	!	!	!	!LO:TX:a:i:t=Quartetto solo	!	!	!	!	!	!	!	!	!	!	!	!	!	!	!	!	!	!	!	!	!LO:N:vis=2.	!	!	!	!	!	!	!	!
!	!	!	!	!	!	!	!	!	!	!	!	!	!LO:TX:t=P:problem=adnotacja zapisana wertykalnie	!	!	!	!	!	!	!	!	!	!	!	!	!	!	!	!	!	!	!	!	!	!	!	!	!	!	!	!	!
!	!	!	!	!	!	!	!	!	!	!	!	!	!	!	!	!	!	!	!	!	!	!	!LO:TX:t=P:problem=błędne wyświetlanie nazwy grupy	!	!	!	!	!	!	!	!	!	!	!LO:TX:t=P:problem=nieprawidłowe znaki przykluczowe, dla instrumentu in F nie powinno być żadnego	!	!	!	!	!	!	!	!
2.rA;	[>2C\	.	2.rG;<	(>4c/	.	2.r;	.	.	.	2.r;	.	2.r;	2.r;	.	2.rG;<	(>4c/	4c\	.	2.ree;	(4e/	.	2.ree;	(>4cc\	.	2.ryy	4r	.	2.ryy	2.ryy	4r	.	(2c\	.	2c 2C/	.	(4cc/	4cc\	mf	4ee\	.	(4ccc\	mf
.	.	.	.	4B-/)	.	.	.	.	.	.	.	.	.	.	.	4d/)	4B-\	.	.	4f/)	.	.	4b-\)	.	.	4r	.	.	.	4r	.	.	.	.	.	4dd/)	4b-\	.	4ff\	.	4bb-\)	.
.	4C'\]	.	.	4c/;>	.	.	.	.	.	.	.	.	.	.	.	4e/	4c\	.	.	4g/	.	.	4g\	.	.	4C;/	.	.	.	4g 4e;/	.	4C;</)	.	4c 4C;/	.	4ee;/	4cc\	.	4gg;\	.	4gg;\	.
*v	*v	*	*	*	*	*	*	*	*	*	*	*	*	*	*v	*v	*v	*	*v	*v	*	*v	*v	*	*	*	*	*	*	*	*	*	*	*	*	*v	*v	*	*	*	*	*
*	*	*v	*v	*	*	*	*	*	*	*	*	*	*	*	*	*	*	*	*	*	*	*	*	*	*	*	*	*	*	*	*	*	*	*	*	*
!!LO:TX:a:t=[segno]
=2||	=2||	=2||	=2||	=2||	=2||	=2||	=2||	=2||	=2||	=2||	=2||	=2||	=2||	=2||	=2||	=2||	=2||	=2||	=2||	=2||	=2||	=2||	=2||	=2||	=2||	=2||	=2||	=2||	=2||	=2||	=2||	=2||	=2||	=2||	=2||
*>B	*>B	*>B	*>B	*>B	*>B	*>B	*>B	*>B	*>B	*>B	*>B	*>B	*>B	*>B	*>B	*>B	*>B	*>B	*>B	*>B	*>B	*>B	*>B	*>B	*>B	*>B	*>B	*>B	*>B	*>B	*>B	*>B	*>B	*>B	*>B
!	!	!LO:TX:t=P:problem=zapis partii pusty, traktuję ją jako colla parte z cb	!	!	!	!	!	!	!	!	!	!	!	!	!	!	!	!	!	!	!	!	!	!	!	!	!	!	!LO:HP:a	!	!	!	!	!	!
!	!	!	!	!	!	!	!	!	!	!	!	!LO:HP:a	!	!	!	!	!	!	!	!	!	!	!	!	!	!	!	!	!	!	!	!	!	!	!
4F\	p <	4Fyy\	.	2F\	1.) Przy-	2.) Przy-	.	2c\	.	2f/	4..a/	<	8r	.	8r	.	8r	p	2.ryy	2.r	.	2.ryy	2.ryy	2.r	.	2.r	.	2a 2f\	p <	2.r	.	2.r	.	2.r	.
.	.	.	.	.	.	.	.	.	.	.	.	.	8c\L	.	8f/L	.	8a/L	<	.	.	.	.	.	.	.	.	.	.	.	.	.	.	.	.	.
4r	.	4ryy	.	.	.	.	.	.	.	.	.	.	8c\	.	8f/	.	8a/	.	.	.	.	.	.	.	.	.	.	.	.	.	.	.	.	.	.
.	.	.	.	.	.	.	.	.	.	.	.	.	8c\J	.	8f/J	.	8a/J	.	.	.	.	.	.	.	.	.	.	.	.	.	.	.	.	.	.
.	.	.	.	.	.	.	.	.	.	.	16cc\	.	.	.	.	.	.	.	.	.	.	.	.	.	.	.	.	.	.	.	.	.	.	.	.
4E\	.	4Eyy\	.	4E\	-bądź	-badź	.	4c\	.	4g/	4cc\	[	8r	.	8r	.	8r	[	.	.	.	.	.	.	.	.	.	4g 4c/	[[	.	.	.	.	.	.
.	[[	.	.	.	.	.	.	.	.	.	.	.	8c\	.	8g/	.	8cc\	.	.	.	.	.	.	.	.	.	.	.	.	.	.	.	.	.	.
=3	=3	=3	=3	=3	=3	=3	=3	=3	=3	=3	=3	=3	=3	=3	=3	=3	=3	=3	=3	=3	=3	=3	=3	=3	=3	=3	=3	=3	=3	=3	=3	=3	=3	=3	=3
!	!	!	!	!	!	!	!	!	!	!	!	!LO:HP:a	!	!	!	!	!	!	!	!	!	!	!	!	!	!	!	!	!	!	!	!	!	!	!
4D\	>	4Dyy\	.	2D\	Du-	etc.	.	2A\	.	2f/	2ff\	>	8r	.	8r	.	8r	.	2.ryy	2.r	.	2.ryy	2.ryy	2.r	.	2.r	.	4f 4G/	.	2.r	.	2.r	.	2.r	.
.	.	.	.	.	.	.	.	.	.	.	.	.	8d\L	.	8a/L	.	8ff\L	>	.	.	.	.	.	.	.	.	.	.	.	.	.	.	.	.	.
4r	.	4ryy	.	.	.	.	.	.	.	.	.	.	8d\	.	8a/	.	8ff\	.	.	.	.	.	.	.	.	.	.	4r	.	.	.	.	.	.	.
.	.	.	.	.	.	.	.	.	.	.	.	.	8d\J	.	8a/J	.	8ff\J	.	.	.	.	.	.	.	.	.	.	.	.	.	.	.	.	.	.
(8D/L	]	(8Dyy/L	.	(8d\L	-chu	.	.	4d\	.	4f/	4a/	]	8r	.	8r	.	8r	]	.	.	.	.	.	.	.	.	.	4r	.	.	.	.	.	.	.
8C/J)	.	8Cyy/J)	.	8c\J)	.	.	.	.	.	.	.	.	8d\	.	8f/	.	8a/	.	.	.	.	.	.	.	.	.	.	.	.	.	.	.	.	.	.
=4	=4	=4	=4	=4	=4	=4	=4	=4	=4	=4	=4	=4	=4	=4	=4	=4	=4	=4	=4	=4	=4	=4	=4	=4	=4	=4	=4	=4	=4	=4	=4	=4	=4	=4	=4
*	*	*	*	*	*	*	*	*	*	*	*	*	*	*	*	*	*	*	*	*	*	*	*	*	*	*^	*	*	*	*^	*	*	*	*	*
4BB-'/	.	4BB-yy'/	.	(4.B-\	stwo-	.	.	2d\	.	4.f/	(4.dd\	.	8r	.	8r	.	8r	.	2.ryy	2.r	.	2.ryy	2.ryy	2.r	.	2.rAA	(>4.B-\	p	2.r	.	4.ff/	2.dd\	p	2.r	.	(4.ddd\	p
.	.	.	.	.	.	.	.	.	.	.	.	.	[8d\	.	8f'/L	.	8dd'\L	.	.	.	.	.	.	.	.	.	.	.	.	.	.	.	.	.	.	.	.
(8B-\L	.	(yy8B-yy\L	.	.	.	.	.	.	.	.	.	.	2d\]	.	8f'/	.	(8dd'\	.	.	.	.	.	.	.	.	.	.	.	.	.	.	.	.	.	.	.	.
8A\	.	8Ayy\	.	8A\)	.	.	.	.	.	8f#X/	8cc\)	.	.	.	(8f#X/	.	(8cc\	.	.	.	.	.	.	.	.	.	8A\	.	.	.	8ff#X/	.	.	.	.	8ccc'\	.
8B-\	.	8B-yy\	.	(8B-\L	-rzy-	.	.	4d\	.	(8g/L	(8b-\L	.	.	.	8g/	.	8b-\	.	.	.	.	.	.	.	.	.	8B-\L	.	.	.	8gg/L	.	.	.	.	8bb-\L	.
8Bn\J)	.	8Bnyy\J)	.	8Bn\J)	.	.	.	.	.	8fn/J)	8a\J)	.	.	.	8fn/J)	.	8a\J))	.	.	.	.	.	.	.	.	.	8Bn\J)	.	.	.	8ffn/J	.	.	.	.	8aa\J)	.
!!LO:PB:g=original
=5	=5	=5	=5	=5	=5	=5	=5	=5	=5	=5	=5	=5	=5	=5	=5	=5	=5	=5	=5	=5	=5	=5	=5	=5	=5	=5	=5	=5	=5	=5	=5	=5	=5	=5	=5	=5	=5
!	!	!	!	!	!	!	!	!	!	!LO:N:vis=4.	!LO:N:vis=4.	!	!	!	!	!	!	!	!	!	!	!	!	!	!	!	!	!	!	!	!	!	!	!	!	!	!
8c\	.	8cyy\	.	2c\	-cie-	.	.	(4..c\	.	(>[>4e/	(>4g/	.	8r	.	8r	.	8r	.	2.ryy	2.ryy	.	2.ryy	2.ryy	2.ryy	.	(2c\	2.r	.	2.r	.	4ff/	[>4cc\	.	2.r	.	4aa\	.
8r	.	8ryy	.	.	.	.	.	.	.	.	.	.	8c\L	.	8e/L	.	8g/L	.	.	.	.	.	.	.	.	.	.	.	.	.	.	.	.	.	.	.	.
4r	.	4ryy	.	.	.	.	.	.	.	8.e/L]	8.g/L	.	8c\	.	8e/	.	8g/	.	.	.	.	.	.	.	.	.	.	.	.	.	(8.ee/L	8.cc\L]	.	.	.	(8.gg\L	.
.	.	.	.	.	.	.	.	.	.	.	.	.	8c\J	.	8e/J	.	8g/J	.	.	.	.	.	.	.	.	.	.	.	.	.	.	.	.	.	.	.	.
.	.	.	.	.	.	.	.	16e\)	.	16g/Jk)	16cc/Jk)	.	.	.	.	.	.	.	.	.	.	.	.	.	.	.	.	.	.	.	16gg/Jk)	16ee\Jk	.	.	.	16ccc\Jk)	.
4C/	.	4Cyy/	.	4C/	-lu	.	.	4e\	.	4g/	4cc\	.	8r	.	8r	.	8r	.	.	.	.	.	.	.	.	4C/)	.	.	.	.	4gg/	4ee\	.	.	.	4ccc\	.
.	.	.	.	.	.	.	.	.	.	.	.	.	8e\	.	8g/	.	8cc\	.	.	.	.	.	.	.	.	.	.	.	.	.	.	.	.	.	.	.	.
*	*	*	*	*	*	*	*	*	*	*	*	*	*	*	*	*	*	*	*	*	*	*	*	*	*	*	*	*	*	*	*v	*v	*	*	*	*	*
=6	=6	=6	=6	=6	=6	=6	=6	=6	=6	=6	=6	=6	=6	=6	=6	=6	=6	=6	=6	=6	=6	=6	=6	=6	=6	=6	=6	=6	=6	=6	=6	=6	=6	=6	=6	=6
*	*	*	*	*	*	*	*	*	*	*	*	*	*	*	*	*	*	*	*	*	*	*	*	*	*	*	*	*	*^	*	*	*	*	*	*	*
4BB-/	sfz	4BB-yy/	sfzyy	(4BB-^/	Na-	Du-	.	2e^\	.	2g^/	2dd^\	.	8r	.	8r	.	8r	.	2.ryy	2.ryy	.	2.ryy	2.ryy	2.ryy	.	4BB-|/	4BB-^\	.	(2g^/	(2e-\	.	2.r	.	(2dd^<\	.	2.r	.
.	.	.	.	.	.	.	.	.	.	.	.	.	8e\L	.	8g/L	sf	8dd^<\L	sf	.	.	.	.	.	.	.	.	.	.	.	.	.	.	.	.	.	.	.
4r	.	4ryy	.	4B-\)	.	.	.	.	.	.	.	.	8e\	.	8g/	.	8dd\	.	.	.	.	.	.	.	.	(4B-/	(4B- 4BB-\	.	.	.	.	.	.	.	.	.	.
.	.	.	.	.	.	.	.	.	.	.	.	.	8e\J	.	8g/J	.	8dd\J	.	.	.	.	.	.	.	.	.	.	.	.	.	.	.	.	.	.	.	.
4AA/	.	4AAyy/	.	4A\	-pełń	-chu	.	4f\	.	4f/	4cc\	.	8r	.	8r	.	8r	.	.	.	.	.	.	.	.	4A\)	4AA\)	.	4f/)	4f\)	.	.	.	4cc\)	.	.	.
.	.	.	.	.	.	.	.	.	.	.	.	.	8f\	.	8f/	.	8cc\	.	.	.	.	.	.	.	.	.	.	.	.	.	.	.	.	.	.	.	.
*	*	*	*	*	*	*	*	*	*	*	*	*	*	*	*	*	*	*	*	*	*	*	*	*	*	*v	*v	*	*	*	*	*	*	*	*	*	*
*	*	*	*	*	*	*	*	*	*	*	*	*	*	*	*	*	*	*	*	*	*	*	*	*	*	*	*	*v	*v	*	*	*	*	*	*	*
=7	=7	=7	=7	=7	=7	=7	=7	=7	=7	=7	=7	=7	=7	=7	=7	=7	=7	=7	=7	=7	=7	=7	=7	=7	=7	=7	=7	=7	=7	=7	=7	=7	=7	=7	=7
8GG/	.	8GGyy/	.	2G\	pier-	w da-	.	(4d\	.	(4g/	(4.cc\	.	8r	.	8r	.	8r	.	2.ryy	2.ryy	.	2.ryy	2.ryy	2.ryy	.	2.r	.	2.r	.	2.r	.	2.r	.	2.r	.
8r	.	8ryy	.	.	.	.	.	.	.	.	.	.	8d\	.	8g/	.	8cc'\L	.	.	.	.	.	.	.	.	.	.	.	.	.	.	.	.	.	.
8G\	.	8Gyy\	.	.	.	.	.	4c\)	.	4e/)	.	.	4c\	.	4e/	.	(8cc\	.	.	.	.	.	.	.	.	.	.	.	.	.	.	.	.	.	.
8r	.	8ryy	.	.	.	.	.	.	.	.	8b-\)	.	.	.	.	.	8b-\J)	.	.	.	.	.	.	.	.	.	.	.	.	.	.	.	.	.	.
8F\	.	8Fyy\	.	4F\	-si	-rach	.	4c\	.	4f/	4a/	.	8r	.	8r	.	8r	.	.	.	.	.	.	.	.	.	.	.	.	.	.	.	.	.	.
8r	.	8ryy	.	.	.	.	.	.	.	.	.	.	8c\	.	8f/	.	8a/	.	.	.	.	.	.	.	.	.	.	.	.	.	.	.	.	.	.
=8	=8	=8	=8	=8	=8	=8	=8	=8	=8	=8	=8	=8	=8	=8	=8	=8	=8	=8	=8	=8	=8	=8	=8	=8	=8	=8	=8	=8	=8	=8	=8	=8	=8	=8	=8
4C/	.	4Cyy/	.	2C/	łas-	śie-	.	2c\	.	(4f/	2g/	.	8r	.	8r	.	8r	.	2.ryy	2.ryy	.	2.ryy	2.ryy	2.ryy	.	2.r	.	2.r	.	2.r	.	2.r	.	2.r	.
.	.	.	.	.	.	.	.	.	.	.	.	.	8c\	.	8f'/L	.	8g/L	.	.	.	.	.	.	.	.	.	.	.	.	.	.	.	.	.	.
4r	.	4ryy	.	.	.	.	.	.	.	8e/L	.	.	4c\	.	(8e/	.	(8g/	.	.	.	.	.	.	.	.	.	.	.	.	.	.	.	.	.	.
.	.	.	.	.	.	.	.	.	.	8d/J	.	.	.	.	8d/J)	.	8g/J)	.	.	.	.	.	.	.	.	.	.	.	.	.	.	.	.	.	.
4C/	.	4Cyy/	.	4C/	-ką	-dmió-	.	4c\	.	4e/)	4cc\	.	8r	.	8r	.	8r	.	.	.	.	.	.	.	.	.	.	.	.	.	.	.	.	.	.
.	.	.	.	.	.	.	.	.	.	.	.	.	8c\	.	8e/	.	8cc\	.	.	.	.	.	.	.	.	.	.	.	.	.	.	.	.	.	.
=9	=9	=9	=9	=9	=9	=9	=9	=9	=9	=9	=9	=9	=9	=9	=9	=9	=9	=9	=9	=9	=9	=9	=9	=9	=9	=9	=9	=9	=9	=9	=9	=9	=9	=9	=9
8D^<\	.	8Dyy^<\	.	(4D\	Nie-	-ra-	.	(4B-\	.	(4f/	2b-\	.	8r	.	8r	.	8r	.	2.ryy	2.ryy	.	2.ryy	2.ryy	2.ryy	.	2.r	.	2.r	.	2.r	.	2.r	.	2.r	.
8r	.	8ryy	.	.	.	.	.	.	.	.	.	.	8B-^/	.	8f^/L	.	8b-^<\L	.	.	.	.	.	.	.	.	.	.	.	.	.	.	.	.	.	.
8E\	.	8Eyy\	.	4E\)	.	.	.	4c\)	.	4g/)	.	.	8c/L	.	8g/	.	8b-\	.	.	.	.	.	.	.	.	.	.	.	.	.	.	.	.	.	.
8r	.	8ryy	.	.	.	.	.	.	.	.	.	.	8c/J	.	8g/J	.	8b-\J	.	.	.	.	.	.	.	.	.	.	.	.	.	.	.	.	.	.
8F\	.	8Fyy\	.	4F\	-ba	-ki	.	4c\	.	4f/	4a/	.	8r	.	8r	.	8r	.	.	.	.	.	.	.	.	.	.	.	.	.	.	.	.	.	.
8r	.	8ryy	.	.	.	.	.	.	.	.	.	.	8c/	.	8f/	.	8a/	.	.	.	.	.	.	.	.	.	.	.	.	.	.	.	.	.	.
!!LO:PB:g=original
=10	=10	=10	=10	=10	=10	=10	=10	=10	=10	=10	=10	=10	=10	=10	=10	=10	=10	=10	=10	=10	=10	=10	=10	=10	=10	=10	=10	=10	=10	=10	=10	=10	=10	=10	=10
*	*	*	*	*	*	*	*	*	*	*	*	*	*	*	*	*	*	*	*	*	*	*	*	*	*	*	*	*	*	*^	*	*	*	*	*
8A\	.	8Ayy\	.	(4A\	My-	Wład-	.	(4c\	.	2e/	(>8.a/L	.	8r	.	8r	.	8r	.	2.ryy	2.r	.	2.ryy	2.ryy	2.r	.	(4c 4A\	p	2.r	.	(8.a/L	[2.e\	.	2.r	.	(8.aa\L	p
8r	.	8ryy	.	.	.	.	.	.	.	.	.	.	8c\	.	8e/	.	8a/	.	.	.	.	.	.	.	.	.	.	.	.	.	.	.	.	.	.	.
.	.	.	.	.	.	.	.	.	.	.	32bn/LL	.	.	.	.	.	.	.	.	.	.	.	.	.	.	.	.	.	.	32bn/LL	.	.	.	.	32bbn\LL	.
.	.	.	.	.	.	.	.	.	.	.	32a/JJJ	.	.	.	.	.	.	.	.	.	.	.	.	.	.	.	.	.	.	32a/JJJ	.	.	.	.	32aa\JJJ	.
*	*	*	*	*	*	*	*	*	*	*	*	*	*	*	*rep	*	*	*	*	*	*	*	*	*	*	*	*	*	*	*	*	*	*	*	*	*
8Bn\	<	8Bnyy\	.	4Bn\)	.	.	.	4d\)	.	.	4g#X/)	.	8r	.	8r	<	8r	<	.	.	.	.	.	.	.	4d 4Bn\	<	.	.	4g#X/	.	.	.	.	4gg#X\	<
8r	.	8ryy	.	.	.	.	.	.	.	.	.	.	8d\	.	8e/	.	8g#X/	.	.	.	.	.	.	.	.	.	.	.	.	.	.	.	.	.	.	.
*	*	*	*	*	*	*	*	*	*	*	*	*	*	*	*Xrep	*	*	*	*	*	*	*	*	*	*	*	*	*	*	*	*	*	*	*	*	*
*	*	*	*	*	*	*	*	*	*	*	*	*	*	*	*rep	*	*	*	*	*	*	*	*	*	*	*	*	*	*	*	*	*	*	*	*	*
8c\	.	8cyy\	.	4c\	-śli	-cy	.	4e\	.	4e/	4a/	.	8r	.	8r	.	8r	.	.	.	.	.	.	.	.	4e 4c\)	.	.	.	4a/)	.	.	.	.	4aa\)	.
8r	.	8ryy	.	.	.	.	.	.	.	.	.	.	8e\	.	8e/	.	8a/	.	.	.	.	.	.	.	.	.	.	.	.	.	.	.	.	.	.	.
*	*	*	*	*	*	*	*	*	*	*	*	*	*	*	*Xrep	*	*	*	*	*	*	*	*	*	*	*	*	*	*	*	*	*	*	*	*	*
=11	=11	=11	=11	=11	=11	=11	=11	=11	=11	=11	=11	=11	=11	=11	=11	=11	=11	=11	=11	=11	=11	=11	=11	=11	=11	=11	=11	=11	=11	=11	=11	=11	=11	=11	=11	=11
*	*	*	*	*	*	*	*	*	*	*	*	*	*	*	*	*	*	*	*	*	*	*	*	*	*	*^	*	*	*	*	*	*	*	*	*	*
*	*	*	*	*	*	*	*	*	*	*	*	*	*	*	*rep	*	*	*	*	*	*	*	*	*	*	*	*	*	*	*	*	*	*	*	*	*	*
!	!	!	!LO:HP:t=cresc	!	!	!	!	!	!	!	!	!LO:HP:a	!	!	!	!	!	!	!	!	!	!	!	!	!	!	!	!	!	!	!	!	!	!	!	!	!
8G#X\	.	8G#Xyy\	<	2G#X\	na-	Bo-	.	2e\	.	2e/	2bn\	<	8r	.	8r	.	8r	.	2.ryy	2.r	.	2.ryy	2.ryy	2.r	.	2e/	2G#X\	.	2.r	.	2bn/	2.e\]	.	2.r	.	(2bbn\	.
8r	.	8ryy	.	.	.	.	.	.	.	.	.	.	8e\	.	8e/	[[	8bn\	.	.	.	.	.	.	.	.	.	.	.	.	.	.	.	.	.	.	.	.
!	!	!	!	!	!	!	!	!	!	!	!	!	!	!	!	!LO:HP:t=cresc	!	!	!	!	!	!	!	!	!	!	!	!	!	!	!	!	!	!	!	!	!
8G#\	.	8G#yy\	.	.	.	.	.	.	.	.	.	.	8r	.	8r	<	8r	.	.	.	.	.	.	.	.	.	.	.	.	.	.	.	.	.	.	.	.
8r	.	8ryy	.	.	.	.	.	.	.	.	.	.	8e\	.	8e/	.	8b\	.	.	.	.	.	.	.	.	.	.	.	.	.	.	.	.	.	.	.	.
8A\	.	8Ayy\	.	4A\	-sze	-ga	.	4A\	.	4e/	4cc\	[[	8r	.	8r	.	8r	.	.	.	.	.	.	.	.	4A/	4A\	[	.	.	4cc/	.	.	.	.	4ccc\)	[[
8r	[[	8ryy	.	.	.	.	.	.	.	.	.	.	8A/	.	8e/	.	8cc\	[[	.	.	.	.	.	.	.	.	.	.	.	.	.	.	.	.	.	.	.
*	*	*	*	*	*	*	*	*	*	*	*	*	*	*	*Xrep	*	*	*	*	*	*	*	*	*	*	*	*	*	*	*	*	*	*	*	*	*	*
=12	=12	=12	=12	=12	=12	=12	=12	=12	=12	=12	=12	=12	=12	=12	=12	=12	=12	=12	=12	=12	=12	=12	=12	=12	=12	=12	=12	=12	=12	=12	=12	=12	=12	=12	=12	=12	=12
*	*	*	*	*	*	*	*	*	*	*	*	*	*	*	*	*	*	*	*	*	*	*	*	*	*	*	*	*	*^	*	*	*	*	*	*	*	*
!	!LO:DY:a	!	!LO:DY:a	!	!	!	!LO:DY:a	!	!	!	!	!LO:DY:a	!	!	!	!	!	!LO:DY:a	!	!	!LO:DY:a	!	!	!	!	!	!	!	!	!	!	!	!	!	!	!	!	!
8Gn\	f	8Gnyy\	fyy	2Gn\	wiedź	wska-	f	2Bn\	.	2g/	(4dd\	f	8r	.	8r	.	8r	f	2.ryy	2G\	f	2.ryy	2.ryy	2dd 2g/	.	2Bn/	2G\	f	2g/	2g\	.	(2bn/	2.g\	f	(4dd\	.	(4ddd\	f
8r	.	8ryy	.	.	.	.	.	.	.	.	.	.	8Bn/	.	8g/	f	8dd\	.	.	.	.	.	.	.	.	.	.	.	.	.	.	.	.	.	.	.	.	.
8G\	.	8Gyy\	.	.	.	.	.	.	.	.	4gg\)	.	8r	.	8r	.	8r	.	.	.	.	.	.	.	.	.	.	.	.	.	.	.	.	.	4gg\)	.	4ggg\)	.
8r	.	8ryy	.	.	.	.	.	.	.	.	.	.	8B/	.	8g/	.	8gg\	.	.	.	.	.	.	.	.	.	.	.	.	.	.	.	.	.	.	.	.	.
(8A\L	.	(yy8Ayy\L	.	(8A\L	do	-źi-	.	(8c\L	.	4g/	4ff\	.	(8c\L	.	4g/	.	8r	.	.	4r	.	.	.	4r	.	(8cL 8A\	4ryy	.	4r	4ryy	.	8cc/L	.	.	([4ff|\	.	[4fff|\	.
8Bn\J)	.	8Bnyy\J)yy	.	8Bn\J)	.	.	.	8d\J)	.	.	.	.	8d\J)	.	.	.	(8ff\	.	.	.	.	.	.	.	.	8dJ 8Bn\)	.	.	.	.	.	8dd/J)	.	.	.	.	.	.
*	*	*	*	*	*	*	*	*	*	*	*	*	*	*	*	*	*	*	*	*	*	*	*	*	*	*v	*v	*	*	*	*	*	*	*	*	*	*	*
*	*	*	*	*	*	*	*	*	*	*	*	*	*	*	*	*	*	*	*	*	*	*	*	*	*	*	*	*v	*v	*	*	*	*	*	*	*	*
=13	=13	=13	=13	=13	=13	=13	=13	=13	=13	=13	=13	=13	=13	=13	=13	=13	=13	=13	=13	=13	=13	=13	=13	=13	=13	=13	=13	=13	=13	=13	=13	=13	=13	=13	=13	=13
4c\	.	4cyy\	.	2c\	ce-	-cie-	.	2c\	.	2g/	4ff\	.	2c\	.	2g/	.	8r	.	2.ryy	2.r	.	2.ryy	2.ryy	2.r	.	2c\	.	2.g 2.c/	.	2.cc/	2.g\	.	4ff\]	.	(4fff\]	.
.	.	.	.	.	.	.	.	.	.	.	.	.	.	.	.	.	8ff\)	.	.	.	.	.	.	.	.	.	.	.	.	.	.	.	.	.	.	.
4r	.	4ryy	.	.	.	.	.	.	.	.	8ee\L	.	.	.	.	.	(8ee\L	.	.	.	.	.	.	.	.	.	.	.	.	.	.	.	8ee\L	.	8eee\L	.
.	.	.	.	.	.	.	.	.	.	.	8dd\J	.	.	.	.	.	8dd\J)	.	.	.	.	.	.	.	.	.	.	.	.	.	.	.	8dd\J	.	8ddd\J	.
4C/	.	4Cyy/	.	4C/	-lu	-lu	.	4c\	.	4g/	4ee\	.	4c\	.	4g/	.	8r	.	.	.	.	.	.	.	.	4C/	.	.	.	.	.	.	4ee\)	.	4eee\)	.
.	.	.	.	.	.	.	.	.	.	.	.	.	.	.	.	.	8ee\	.	.	.	.	.	.	.	.	.	.	.	.	.	.	.	.	.	.	.
*	*	*	*	*	*	*	*	*	*	*	*	*	*	*	*	*	*	*	*	*	*	*	*	*	*	*	*	*	*	*v	*v	*	*	*	*	*
=14	=14	=14	=14	=14	=14	=14	=14	=14	=14	=14	=14	=14	=14	=14	=14	=14	=14	=14	=14	=14	=14	=14	=14	=14	=14	=14	=14	=14	=14	=14	=14	=14	=14	=14	=14
*	*	*	*	*^	*	*	*	*^	*	*^	*	*	*	*	*	*	*	*	*	*	*	*	*	*	*	*	*	*	*	*	*	*	*	*	*
8F\	.	8Fyy\	.	8.F/	2D\	Któ-	Łas-	.	2c\	8.c/	.	2a/	4.a\	(4.ee^\	.	8r	.	8r	.	8r	.	2.ryy	4r	.	2.ryy	2.ryy	2.r	.	4r	.	4r	.	2.r	.	2.r	.	2.r	.
8r	.	8ryy	.	.	.	.	.	.	.	.	.	.	.	.	.	8c\	.	8a/	.	8ee\	.	.	.	.	.	.	.	.	.	.	.	.	.	.	.	.	.	.
.	.	.	.	16F/	.	.	-ki	.	.	16c/	.	.	.	.	.	.	.	.	.	.	.	.	.	.	.	.	.	.	.	.	.	.	.	.	.	.	.	.
8F\	.	8Fyy\	.	4ryy	.	.	.	.	.	2ryy	.	.	.	.	.	8r	.	8r	.	8r	.	.	4r	.	.	.	.	.	4r	.	4r	.	.	.	.	.	.	.
8r	.	8ryy	.	.	.	.	.	.	.	.	.	.	8a\	8dd\)	.	8c\	.	8a/	.	8dd\	.	.	.	.	.	.	.	.	.	.	.	.	.	.	.	.	.	.
.	.	.	.	.	.	.	.	.	.	.	.	.	.	(8qdd/	.	.	.	.	.	((8qdd/	sf	.	.	.	.	.	.	.	.	.	.	.	.	.	.	.	.	.
!	!LO:DY:a	!	!LO:DY:a	!	!	!	!	!	!	!	!	!	!	!	!	!	!	!	!	!	!	!	!LO:TX:t=P:problem=łuk bez zakończenia	!	!	!	!	!	!	!	!	!	!	!	!	!	!	!
4F#X^\	sf	4F#Xyy^<\	sfyy	8.F#X\	4ryy	-re-	Te-	.	8.A\	.	.	8.e-/	4ryy	8.cc\)	.	8.A^/L	.	4e-X^/	.	8.cc\L))	.	.	4F#X^\	sf	.	.	.	.	(4e-X (4F#X^<\	.	(4a [4c^>/	.	.	.	.	.	.	.
.	.	.	.	16F#\	.	-go	-go	.	16c\	.	.	16e-/	.	16a\	.	16c/Jk	.	.	.	16a|\Jk	.	.	.	.	.	.	.	.	.	.	.	.	.	.	.	.	.	.
*	*	*	*	*v	*v	*	*	*	*	*	*	*v	*v	*	*	*	*	*	*	*	*	*	*	*	*	*	*	*	*	*	*	*	*	*	*	*	*	*
*	*	*	*	*	*	*	*	*v	*v	*	*	*	*	*	*	*	*	*	*	*	*	*	*	*	*	*	*	*	*	*	*	*	*	*	*	*
!!LO:PB:g=original
=15	=15	=15	=15	=15	=15	=15	=15	=15	=15	=15	=15	=15	=15	=15	=15	=15	=15	=15	=15	=15	=15	=15	=15	=15	=15	=15	=15	=15	=15	=15	=15	=15	=15	=15	=15
8G\	.	8Gyy\	.	(8.G\L	wier-	w To-	.	(2.c\	.	(2.en/	2g/	.	8r	.	8r	.	8r	.	2.ryy	2.ryy	.	2.ryy	2.ryy	2.ryy	.	8en 8G\))	.	8g 8c/])	.	2.r	.	2.r	.	2.r	.
8r	.	8ryy	.	.	.	.	.	.	.	.	.	.	8c\	.	8e/	.	8g/	.	.	.	.	.	.	.	.	8r	.	8r	.	.	.	.	.	.	.
.	.	.	.	32A\LL	.	.	.	.	.	.	.	.	.	.	.	.	.	.	.	.	.	.	.	.	.	.	.	.	.	.	.	.	.	.	.
.	.	.	.	32G\JJJ	.	.	.	.	.	.	.	.	.	.	.	.	.	.	.	.	.	.	.	.	.	.	.	.	.	.	.	.	.	.	.
8E\	.	8Eyy\	.	4E\	.	.	.	.	.	.	.	.	8r	.	8r	.	8r	.	.	.	.	.	.	.	.	4r	.	4r	.	.	.	.	.	.	.
8r	.	8ryy	.	.	.	.	.	.	.	.	.	.	8c\	.	8e/	.	8g/	.	.	.	.	.	.	.	.	.	.	.	.	.	.	.	.	.	.
4C/	.	4Cyy/	.	4C/	.	.	.	.	.	.	[4cc\	.	4c\	.	4e/	.	([4cc\	.	.	.	.	.	.	.	.	4r	.	4r	.	.	.	.	.	.	.
=16	=16	=16	=16	=16	=16	=16	=16	=16	=16	=16	=16	=16	=16	=16	=16	=16	=16	=16	=16	=16	=16	=16	=16	=16	=16	=16	=16	=16	=16	=16	=16	=16	=16	=16	=16
*	*	*	*	*	*	*	*	*	*	*	*	*	*	*	*	*	*	*	*	*	*	*	*	*	*	*	*	*^	*	*	*	*	*	*	*
!	!	!	!	!	!	!	!	!	!	!	!	!	!	!	!	!	!	!	!	!	!	!	!	!	!	!	!	!	!	!LO:DY:b	!	!	!	!	!	!
!	!	!	!	!	!	!	!	!	!	!	!	!	!	!	!	!	!	!	!	!	!	!	!	!	!	!	!	!	!	!LO:HP:a	!	!	!	!	!	!
2GG/	.	2GGyy/	.	4GG/)	.	.	.	4d\)	.	4f/)	4cc\]	.	2.d\	.	2.f 2.G/	.	4cc\]	.	2.ryy	2.ryy	.	2.ryy	2.ryy	2.ryy	.	2.d 2.G\	p	2.g/	2.f\	p <	2.r	.	2.r	.	2.r	.
.	.	.	.	4G\	-nym	.	.	4d\	.	4f/	8bn\L	.	.	.	.	.	8bn\L	.	.	.	.	.	.	.	.	.	.	.	.	.	.	.	.	.	.	.
.	.	.	.	.	.	.	.	.	.	.	8a\J	.	.	.	.	.	8a\J	.	.	.	.	.	.	.	.	.	.	.	.	.	.	.	.	.	.	.
4G\	.	4Gyy\	.	4GG/	po-	-bie	.	4d\	.	4f/	4b\	.	.	.	.	.	4b\	.	.	.	.	.	.	.	.	.	.	.	.	[[	.	.	.	.	.	.
=17	=17	=17	=17	=17	=17	=17	=17	=17	=17	=17	=17	=17	=17	=17	=17	=17	=17	=17	=17	=17	=17	=17	=17	=17	=17	=17	=17	=17	=17	=17	=17	=17	=17	=17	=17	=17
*	*	*	*	*^	*	*	*	*^	*	*^	*	*	*	*	*	*	*	*	*	*	*	*	*	*	*	*^	*	*	*	*	*	*	*	*	*	*
!	!	!	!	!	!	!	!	!	!	!	!	!	!	!	!	!	!	!	!	!	!	!	!	!	!	!	!	!	!LO:N:vis=4.	!	!	!	!	!LO:HP:a	!	!	!	!	!	!
4.C/	.	4.Cyy/	.	4C/	2ryy	-trze-	zna-	.	4Bn\	2ryy	.	4f/	2ryy	4dd\	.	(>4Bn^/	.	[<4f 4G/	.	(4dd^<\)	.	2.ryy	2.ryy	.	2.ryy	2.ryy	2.ryy	.	4Bn/	4C\	.	[4g/	(4f\	>	4r	.	4r	.	4r	.
.	.	.	.	8C/	.	-ba	-ki	.	8c\	.	.	8e/	.	8cc\	.	8c/)	.	8f] 8G/	.	8cc\)	.	.	.	.	.	.	.	.	8c/	8r	.	8g/]	8e-\)	]	4r	.	4r	.	4r	.
8r	.	8ryy	.	8r	.	.	.	.	8r	.	.	8r	.	8r	.	8r	.	8r	.	8r	.	.	.	.	.	.	.	.	8r	8ryy	.	8r	4.ryy	.	.	.	.	.	.	.
4r	.	4ryy	.	8.c/	4c\	O-	Wzbo-	.	8.e/	4e\	.	8.g/	4g\	8.cc/	.	4r	.	4r	.	4r	.	.	.	.	.	.	.	.	8.c|L 8.C\	4ryy	.	4r	.	.	8.g|L 8.e/	.	8.cc|\L	.	8.ccc|\L	.
.	.	.	.	16c/	.	.	-gać	.	16e/	.	.	16g/	.	16cc/	.	.	.	.	.	.	.	.	.	.	.	.	.	.	16c|Jk 16C\	.	.	.	.	.	16g|Jk 16e/	.	16cc|\Jk	.	16ccc|\Jk	.
*	*	*	*	*v	*v	*	*	*	*	*	*	*v	*v	*	*	*	*	*	*	*	*	*	*	*	*	*	*	*	*v	*v	*	*v	*v	*	*	*	*	*	*	*
*	*	*	*	*	*	*	*	*v	*v	*	*	*	*	*	*	*	*	*	*	*	*	*	*	*	*	*	*	*	*	*	*	*	*	*	*	*
=18||	=18||	=18||	=18||	=18||	=18||	=18||	=18||	=18||	=18||	=18||	=18||	=18||	=18||	=18||	=18||	=18||	=18||	=18||	=18||	=18||	=18||	=18||	=18||	=18||	=18||	=18||	=18||	=18||	=18||	=18||	=18||	=18||	=18||	=18||	=18||
*>C	*>C	*>C	*>C	*>C	*>C	*>C	*>C	*>C	*>C	*>C	*>C	*>C	*>C	*>C	*>C	*>C	*>C	*>C	*>C	*>C	*>C	*>C	*>C	*>C	*>C	*>C	*>C	*>C	*>C	*>C	*>C	*>C	*>C	*>C	*>C
*M4/4	*	*M4/4	*	*M4/4	*	*	*	*M4/4	*	*M4/4	*M4/4	*	*M4/4	*	*M4/4	*	*M4/4	*	*M4/4	*M4/4	*	*M4/4	*M4/4	*M4/4	*	*M4/4	*	*M4/4	*	*M4/4	*	*M4/4	*	*M4/4	*
*met(c)	*	*met(c)	*	*met(c)	*	*	*	*met(c)	*	*met(c)	*met(c)	*	*met(c)	*	*met(c)	*	*met(c)	*	*met(c)	*met(c)	*	*met(c)	*met(c)	*met(c)	*	*met(c)	*	*met(c)	*	*met(c)	*	*met(c)	*	*met(c)	*
*	*	*	*	*	*	*	*	*	*	*	*	*	*	*	*	*	*	*	*	*	*	*	*	*	*	*^	*	*^	*	*^	*	*	*	*	*
!	!	!	!	!	!	!	!LO:DY:a	!	!LO:DY:a	!	!	!LO:DY:a	!	!	!	!	!	!	!	!	!	!	!	!	!	!	!	!	!	!	!	!	!	!	!	!	!	!
1r	.	1r	.	[4B-\	-gni-	u-	f	[4e\	f	[4g/	(4dd\	f	1r	.	1r	.	1r	.	1r	1r	.	1r	1r	1r	.	[4B- [4BB-^<\	2.ryy	.	2r	2.ryy	.	[4g [<4e/	2ryy	.	(4dd^<\	.	(4ddd^<\	.
.	.	.	.	8.B-\]	.	.	.	8.e\]	.	8.g/]	8.cc\)	.	.	.	.	.	.	.	.	.	.	.	.	.	.	8.B-]L 8.BB-\]	.	.	.	.	.	8.g]L 8.e/]	.	.	8.cc\L)	.	8.ccc\L)	.
.	.	.	.	16B- 16G\	-skow	-sta	.	16e\	.	16g/	16cc\	.	.	.	.	.	.	.	.	.	.	.	.	.	.	16B-|Jk 16BB-\	.	.	.	.	.	16g|>Jk 16e/	.	.	16cc|\Jk	.	16ccc|\Jk	.
.	.	.	.	[4A\	To-	na-	.	4f\	.	4f/	(4dd\	.	.	.	.	.	.	.	.	.	.	.	.	.	.	[4A [4AA^<\	.	.	4r	.	.	[4f/	[4f\	.	(4dd^<\	.	(4ddd^<\	.
!	!	!	!	!	!	!	!	!	!	!	!	!	!	!	!	!	!	!	!	!	!	!	!	!	!	!	!LO:TX:t=P:problem=jedna kropka	!	!	!	!	!	!	!	!	!	!	!
.	.	.	.	8.A\]	-bie	.	.	8.f\	.	8.f/	8.cc\)	.	.	.	.	.	.	.	.	.	.	.	.	.	.	8.A/L]	8.AL 8.AA\]	.	8.r	8.ryy	.	8.f/L]	8.f\L]	.	8.cc\L)	.	8.ccc\L)	.
!	!	!	!	!	!	!	!	!	!	!	!	!	!	!	!	!	!	!	!	!	!	!	!	!	!	!	!	!	!	!	!	!	!	!	!	!	!LO:TX:t=P:problem=skreślony takt	!
.	.	.	.	16F\	ia-	-sze	.	16A\	.	16f/	16ff\	.	.	.	.	.	.	.	.	.	.	.	.	.	.	16F/Jk	16F\Jk	.	16a/	16f\	.	16a|/Jk	16f\Jk	.	16ff|\Jk	.	16fff|\Jk	.
*	*	*	*	*	*	*	*	*	*	*	*	*	*	*	*	*	*	*	*	*	*	*	*	*	*	*v	*v	*	*	*	*	*v	*v	*	*	*	*	*
*	*	*	*	*	*	*	*	*	*	*	*	*	*	*	*	*	*	*	*	*	*	*	*	*	*	*	*	*v	*v	*	*	*	*	*	*	*
!!LO:PB:g=original
=19	=19	=19	=19	=19	=19	=19	=19	=19	=19	=19	=19	=19	=19	=19	=19	=19	=19	=19	=19	=19	=19	=19	=19	=19	=19	=19	=19	=19	=19	=19	=19	=19	=19	=19	=19
1r	.	1r	.	2C/	-sno-	mo-	.	2B-\	.	2g/	2ff\	.	1r	.	1r	.	1r	.	1ryy	2r	.	1ryy	1ryy	1r	.	[2C/	.	[2g [>2c^/	.	(2b- (2f/	.	(2ff\	.	(2fff^<\	.
.	.	.	.	8C/	-ści	-wą	.	8B-\	.	8g/	8ee\	.	.	.	.	.	.	.	.	4r	.	.	.	.	.	8C/]	.	8g] 8c/]	.	8b- 8g/))	.	8ee\)	.	8eee\)	.
.	.	.	.	8r	.	.	.	8r	.	8r	8r	.	.	.	.	.	.	.	.	.	.	.	.	.	.	8r	.	8r	.	8r	.	8r	.	8r	.
.	.	.	.	8.C#X/	zró-	zmys-	.	8.A\	.	8.g/	8.ee\	.	.	.	.	.	.	.	.	8.C#/L	.	.	.	.	.	8.c#X|L 8.C#X\	.	4r	.	8.aL 8.g/	.	8.ee|\L	.	8.eee|\L	.
.	.	.	.	16C#/	-dło	-łem	.	16A\	.	16g/	16ee\	.	.	.	.	.	.	.	.	16C#/Jk	.	.	.	.	.	16c#|Jk 16C#\	.	.	.	16aJk 16g/	.	16ee|\Jk	.	16eee|\Jk	.
=20	=20	=20	=20	=20	=20	=20	=20	=20	=20	=20	=20	=20	=20	=20	=20	=20	=20	=20	=20	=20	=20	=20	=20	=20	=20	=20	=20	=20	=20	=20	=20	=20	=20	=20	=20
*	*	*	*	*	*	*	*	*	*	*	*	*	*	*	*^	*	*	*	*	*	*	*	*	*	*	*	*	*^	*	*	*	*	*	*	*
!	!	!	!	!	!	!	!	!	!	!	!	!	!	!	!	!	!	!	!	!	!	!	!	!	!	!	!	!	!	!	!	!	!	!	!LO:DY:a	!	!
!	!	!	!	!	!	!	!	!	!	!	!	!	!	!	!	!	!	!	!	!	!	!	!	!	!	!LO:DY:a	!	!	!	!	!	!	!	!	!	!	!
4D\	f	4Dyy\	fyy	4.D\	ży-	na-	.	4.A\	.	4.f/	4.ff\	.	4d 4F\	f	4dd/	4dd 4f\	.	4ff 4a 4d\	f	1ryy	2D^>/	f	1ryy	1ryy	2a 2f^/	f	2d 2D^<\	.	2r	2ryy	.	4.a 4.f/	.	4.ff\	f	4.fff\	.
4r	.	4ryy	.	.	.	.	.	.	.	.	.	.	4r	.	4r	2.ryy	.	4r	.	.	.	.	.	.	.	.	.	.	.	.	.	.	.	.	.	.	.
.	.	.	.	8D\	-cia	-dać	.	8A\	.	8f/	8a/	.	.	.	.	.	.	.	.	.	.	.	.	.	.	.	.	.	.	.	.	8a 8f/	.	8a\	.	8aa\	.
2GG/	.	2GGyy/	.	4.GG/	i	swia-	.	4.d\	.	4.f/	(8bn\L	.	2G/	.	(>[2d/	.	.	[2f [2G/	.	.	2GG^>/	.	.	.	2f 2d^/	.	2G 2GG^<\	.	2g/	2g\	.	2f 2d/	.	(8bn\L	.	(8bbn\L	.
.	.	.	.	.	.	.	.	.	.	.	16cc\L	.	.	.	.	.	.	.	.	.	.	.	.	.	.	.	.	.	.	.	.	.	.	16cc\L	.	16ccc\L	.
.	.	.	.	.	.	.	.	.	.	.	16b\JJ	.	.	.	.	.	.	.	.	.	.	.	.	.	.	.	.	.	.	.	.	.	.	16b\JJ	.	16bb\JJ	.
.	.	.	.	.	.	.	.	.	.	.	8a\)	.	.	.	.	.	.	.	.	.	.	.	.	.	.	.	.	.	.	.	.	.	.	8a\L)	.	8aa\L)	.
.	.	.	.	8G\	mi-	-tłość	.	8d\	.	8f/	8b\	.	.	.	.	.	.	.	.	.	.	.	.	.	.	.	.	.	.	.	.	.	.	8b'\J	.	8bb'\J	.
*	*	*	*	*	*	*	*	*	*	*	*	*	*	*	*v	*v	*	*	*	*	*	*	*	*	*	*	*	*	*	*	*	*	*	*	*	*	*
=21	=21	=21	=21	=21	=21	=21	=21	=21	=21	=21	=21	=21	=21	=21	=21	=21	=21	=21	=21	=21	=21	=21	=21	=21	=21	=21	=21	=21	=21	=21	=21	=21	=21	=21	=21	=21
*	*	*	*	*	*	*	*	*	*	*	*	*	*	*	*	*	*	*	*	*	*	*	*	*	*	*^	*	*	*	*	*^	*	*	*	*	*
[2C/	.	[yy2Cyy/	.	2C/	-łos-	no-	.	2Bn\	.	2f/	(2dd\	.	(2Bn/	.	2dnX/])	.	(>2f] 2G/_	.	1ryy	[2C/	.	1ryy	1ryy	2f 2Bn/	.	[2G^</	2G [>2C\	.	2g^</	2g\	.	(2bn/	(2f\	.	2dd\	.	(2ddd\	.
8C/]	.	8Cyy/]	.	8C/	-ci,	-wą	.	8c\	.	8e/	8cc\)	.	8c/)	.	8c/	.	8e 8G/])	.	.	8C/]	.	.	.	8e 8c/	.	4G/]	8G 8C\]	.	8g/	8g\	.	8cc/)	8e\)	.	8cc\	.	8ccc\)	.
8r	.	8ryy	.	8r	.	.	.	8r	.	8r	8r	.	8r	.	8r	.	8r	.	.	8r	.	.	.	(8b-XL 8g/	.	.	8r	.	(8b-L 8g\	4.ryy	.	8r	4.ryy	.	8r	.	8r	.
4r	.	4ryy	.	4r	.	.	.	4r	.	4r	4r	.	4r	.	4r	.	4r	.	.	4r	.	.	.	8a 8f/	.	4r	4r	.	8a 8f\	.	.	4r	.	.	4r	.	4r	.
.	.	.	.	.	.	.	.	.	.	.	.	.	.	.	.	.	.	.	.	.	.	.	.	8gJ 8c/)	.	.	.	.	8gJ 8c\)	.	.	.	.	.	.	.	.	.
*	*	*	*	*	*	*	*	*	*	*	*	*	*	*	*	*	*	*	*	*	*	*	*	*	*	*v	*v	*	*	*	*	*v	*v	*	*	*	*	*
*	*	*	*	*	*	*	*	*	*	*	*	*	*	*	*	*	*	*	*	*	*	*	*	*	*	*	*	*v	*v	*	*	*	*	*	*	*
=22||	=22||	=22||	=22||	=22||	=22||	=22||	=22||	=22||	=22||	=22||	=22||	=22||	=22||	=22||	=22||	=22||	=22||	=22||	=22||	=22||	=22||	=22||	=22||	=22||	=22||	=22||	=22||	=22||	=22||	=22||	=22||	=22||	=22||	=22||	=22||
*>D	*>D	*>D	*>D	*>D	*>D	*>D	*>D	*>D	*>D	*>D	*>D	*>D	*>D	*>D	*>D	*>D	*>D	*>D	*>D	*>D	*>D	*>D	*>D	*>D	*>D	*>D	*>D	*>D	*>D	*>D	*>D	*>D	*>D	*>D	*>D
*M3/4	*	*M3/4	*	*M3/4	*	*	*	*M3/4	*	*M3/4	*M3/4	*	*M3/4	*	*M3/4	*	*M3/4	*	*M3/4	*M3/4	*	*M3/4	*M3/4	*M3/4	*	*M3/4	*	*M3/4	*	*M3/4	*	*M3/4	*	*M3/4	*
*	*	*	*	*	*	*	*	*	*	*	*	*	*	*	*	*	*	*	*	*	*	*	*	*	*	*	*	*^	*	*	*	*	*	*	*
*tremolo	*	*tremolo	*	*	*	*	*	*	*	*	*	*	*tremolo	*	*tremolo	*	*tremolo	*	*	*	*	*	*	*	*	*	*	*	*	*	*	*	*	*	*	*
!	!	!	!LO:DY:a	!	!	!	!	!	!	!	!	!	!	!	!	!	!	!	!	!	!	!	!	!	!	!	!	!	!	!	!	!	!	!	!	!
!	!	!	!LO:HP:a	!LO:TX:a:t=tutti	!	!	!	!	!	!	!LO:TX:a:t=tutti	!	!	!	!	!	!LO:TX:a:t=divisi	!	!	!	!	!	!	!	!	!LO:TX:t=P:problem=niewłaściwe wyświetlanie łuku	!	!	!	!	!	!	!	!	!LO:TX:t=P:problem=błędne wyświetlanie cresc i decresc w całej partii	!
32F\LLL	.	32F\LLL	< mf	2F\	Tyś	Mi-	.	2c\	.	2f/	2a/	.	32ccLLL 32f\	.	32ffLLL 32f\	.	32aaLLL 32a\	mf <	2.r	2.r	.	2.r	2.r	2.r	.	(2f (>2F\	mf	2.r	2.ryy	.	(>2a 2f/	<	(2ff\	.	(2aa\	mf <
32F\	.	32F\	.	.	.	.	.	.	.	.	.	.	32cc 32f\	.	32ff 32f\	.	32aa 32a\	.	.	.	.	.	.	.	.	.	.	.	.	.	.	.	.	.	.	.
32F\	.	32F\	.	.	.	.	.	.	.	.	.	.	32cc 32f\	.	32ff 32f\	.	32aa 32a\	.	.	.	.	.	.	.	.	.	.	.	.	.	.	.	.	.	.	.
32F\	.	32F\	.	.	.	.	.	.	.	.	.	.	32cc 32f\	.	32ff 32f\	.	32aa 32a\	.	.	.	.	.	.	.	.	.	.	.	.	.	.	.	.	.	.	.
32F\	.	32F\	.	.	.	.	.	.	.	.	.	.	32cc 32f\	.	32ff 32f\	.	32aa 32a\	.	.	.	.	.	.	.	.	.	.	.	.	.	.	.	.	.	.	.
32F\	.	32F\	.	.	.	.	.	.	.	.	.	.	32cc 32f\	.	32ff 32f\	.	32aa 32a\	.	.	.	.	.	.	.	.	.	.	.	.	.	.	.	.	.	.	.
32F\	.	32F\	.	.	.	.	.	.	.	.	.	.	32cc 32f\	.	32ff 32f\	.	32aa 32a\	.	.	.	.	.	.	.	.	.	.	.	.	.	.	.	.	.	.	.
32F\	.	32F\	.	.	.	.	.	.	.	.	.	.	32cc 32f\	.	32ff 32f\	.	32aa 32a\	.	.	.	.	.	.	.	.	.	.	.	.	.	.	.	.	.	.	.
32F\	.	32F\	.	.	.	.	.	.	.	.	.	.	32cc 32f\	.	32ff 32f\	.	32aa 32a\	.	.	.	.	.	.	.	.	.	.	.	.	.	.	.	.	.	.	.
32F\	.	32F\	.	.	.	.	.	.	.	.	.	.	32cc 32f\	.	32ff 32f\	.	32aa 32a\	.	.	.	.	.	.	.	.	.	.	.	.	.	.	.	.	.	.	.
32F\	.	32F\	.	.	.	.	.	.	.	.	.	.	32cc 32f\	.	32ff 32f\	.	32aa 32a\	.	.	.	.	.	.	.	.	.	.	.	.	.	.	.	.	.	.	.
32F\	.	32F\	.	.	.	.	.	.	.	.	.	.	32cc 32f\	.	32ff 32f\	.	32aa 32a\	.	.	.	.	.	.	.	.	.	.	.	.	.	.	.	.	.	.	.
32F\	.	32F\	.	.	.	.	.	.	.	.	.	.	32cc 32f\	.	32ff 32f\	.	32aa 32a\	.	.	.	.	.	.	.	.	.	.	.	.	.	.	.	.	.	.	.
32F\	.	32F\	.	.	.	.	.	.	.	.	.	.	32cc 32f\	.	32ff 32f\	.	32aa 32a\	.	.	.	.	.	.	.	.	.	.	.	.	.	.	.	.	.	.	.
32F\	.	32F\	.	.	.	.	.	.	.	.	.	.	32cc 32f\	.	32ff 32f\	.	32aa 32a\	.	.	.	.	.	.	.	.	.	.	.	.	.	.	.	.	.	.	.
32F\JJJ	.	32F\JJJ	.	.	.	.	.	.	.	.	.	.	32ccJJJ 32f\	.	32ffJJJ 32f\	.	32aaJJJ 32a\	.	.	.	.	.	.	.	.	.	.	.	.	.	.	.	.	.	.	.
32E\LLL	.	32E\LLL	.	4E\	nay-	-łość	.	4c\	.	4g/	4cc\	.	32ccLLL 32e\	.	32ggLLL 32g\	.	32cccLLL 32cc\	.	.	.	.	.	.	.	.	4e 4E\)	.	.	.	.	4cc 4g/)	[[	4gg\)	.	4ccc\)	.
32E\	.	32E\	.	.	.	.	.	.	.	.	.	.	32cc 32e\	.	32gg 32g\	.	32ccc 32cc\	.	.	.	.	.	.	.	.	.	.	.	.	.	.	.	.	.	.	.
32E\	.	32E\	.	.	.	.	.	.	.	.	.	.	32cc 32e\	.	32gg 32g\	.	32ccc 32cc\	.	.	.	.	.	.	.	.	.	.	.	.	.	.	.	.	.	.	.
32E\	.	32E\	.	.	.	.	.	.	.	.	.	.	32cc 32e\	.	32gg 32g\	.	32ccc 32cc\	.	.	.	.	.	.	.	.	.	.	.	.	.	.	.	.	.	.	.
32E\	.	32E\	.	.	.	.	.	.	.	.	.	.	32cc 32e\	.	32gg 32g\	.	32ccc 32cc\	.	.	.	.	.	.	.	.	.	.	.	.	.	.	.	.	.	.	.
32E\	.	32E\	.	.	.	.	.	.	.	.	.	.	32cc 32e\	.	32gg 32g\	.	32ccc 32cc\	.	.	.	.	.	.	.	.	.	.	.	.	.	.	.	.	.	.	.
32E\	.	32E\	.	.	.	.	.	.	.	.	.	.	32cc 32e\	.	32gg 32g\	.	32ccc 32cc\	.	.	.	.	.	.	.	.	.	.	.	.	.	.	.	.	.	.	.
32E\JJJ	.	32E\JJJ	[[	.	.	.	.	.	.	.	.	.	32ccJJJ 32e\	.	32ggJJJ 32g\	.	32cccJJJ 32cc\	[[	.	.	.	.	.	.	.	.	.	.	.	.	.	.	.	.	.	[[
!!LO:PB:g=original
=23	=23	=23	=23	=23	=23	=23	=23	=23	=23	=23	=23	=23	=23	=23	=23	=23	=23	=23	=23	=23	=23	=23	=23	=23	=23	=23	=23	=23	=23	=23	=23	=23	=23	=23	=23	=23
*	*	*	*	*	*	*	*	*	*	*	*	*	*	*	*	*	*	*	*	*	*	*	*	*	*	*^	*	*	*	*	*	*	*	*	*	*
!	!	!	!LO:DY:a	!	!	!	!	!	!	!	!	!	!	!	!	!	!	!	!	!	!	!	!	!	!	!	!	!	!	!	!	!	!	!	!	!	!
32D\LLL	.	32D\LLL	sfz	2D\	-wyż-	w ser-	.	2A\	.	2f/	2ff\	.	32ddLLL 32d\	.	32aaLLL 32a\	.	32fffLLL 32ff\	sfz	2.ryy	(2D/	.	2.ryy	2.ryy	[2.dd [2.f/	.	[2d\)	2D\	sfz	(2.a/	[>2.f\	.	(2ff 2a\	sfz	2aa\	.	2fff\	sfz >
32D\	.	32D\	.	.	.	.	.	.	.	.	.	.	32dd 32d\	.	32aa 32a\	.	32fff 32ff\	.	.	.	.	.	.	.	.	.	.	.	.	.	.	.	.	.	.	.	.
32D\	.	32D\	.	.	.	.	.	.	.	.	.	.	32dd 32d\	.	32aa 32a\	.	32fff 32ff\	.	.	.	.	.	.	.	.	.	.	.	.	.	.	.	.	.	.	.	.
32D\	.	32D\	.	.	.	.	.	.	.	.	.	.	32dd 32d\	.	32aa 32a\	.	32fff 32ff\	.	.	.	.	.	.	.	.	.	.	.	.	.	.	.	.	.	.	.	.
32D\	.	32D\	.	.	.	.	.	.	.	.	.	.	32dd 32d\	.	32aa 32a\	.	32fff 32ff\	.	.	.	.	.	.	.	.	.	.	.	.	.	.	.	.	.	.	.	.
32D\	.	32D\	.	.	.	.	.	.	.	.	.	.	32dd 32d\	.	32aa 32a\	.	32fff 32ff\	.	.	.	.	.	.	.	.	.	.	.	.	.	.	.	.	.	.	.	.
32D\	.	32D\	.	.	.	.	.	.	.	.	.	.	32dd 32d\	.	32aa 32a\	.	32fff 32ff\	.	.	.	.	.	.	.	.	.	.	.	.	.	.	.	.	.	.	.	.
32D\	.	32D\	.	.	.	.	.	.	.	.	.	.	32dd 32d\	.	32aa 32a\	.	32fff 32ff\	.	.	.	.	.	.	.	.	.	.	.	.	.	.	.	.	.	.	.	.
32D\	.	32D\	.	.	.	.	.	.	.	.	.	.	32dd 32d\	.	32aa 32a\	.	32fff 32ff\	.	.	.	.	.	.	.	.	.	.	.	.	.	.	.	.	.	.	.	.
32D\	.	32D\	.	.	.	.	.	.	.	.	.	.	32dd 32d\	.	32aa 32a\	.	32fff 32ff\	.	.	.	.	.	.	.	.	.	.	.	.	.	.	.	.	.	.	.	.
32D\	.	32D\	.	.	.	.	.	.	.	.	.	.	32dd 32d\	.	32aa 32a\	.	32fff 32ff\	.	.	.	.	.	.	.	.	.	.	.	.	.	.	.	.	.	.	.	.
32D\	.	32D\	.	.	.	.	.	.	.	.	.	.	32dd 32d\	.	32aa 32a\	.	32fff 32ff\	.	.	.	.	.	.	.	.	.	.	.	.	.	.	.	.	.	.	.	.
32D\	.	32D\	.	.	.	.	.	.	.	.	.	.	32dd 32d\	.	32aa 32a\	.	32fff 32ff\	.	.	.	.	.	.	.	.	.	.	.	.	.	.	.	.	.	.	.	.
32D\	.	32D\	.	.	.	.	.	.	.	.	.	.	32dd 32d\	.	32aa 32a\	.	32fff 32ff\	.	.	.	.	.	.	.	.	.	.	.	.	.	.	.	.	.	.	.	.
32D\	.	32D\	.	.	.	.	.	.	.	.	.	.	32dd 32d\	.	32aa 32a\	.	32fff 32ff\	.	.	.	.	.	.	.	.	.	.	.	.	.	.	.	.	.	.	.	.
32D\JJJ	.	32D\JJJ	.	.	.	.	.	.	.	.	.	.	32dd 32d\	.	32aaJJJ 32a\	.	32fffJJJ 32ff\	.	.	.	.	.	.	.	.	.	.	.	.	.	.	.	.	.	.	.	.
32D/LLL	.	32D/LLL	.	(8D/L	-szy	-ca	.	4d\	.	4f/	4a/	.	32dd 32d\	.	32ffLLL 32f\	.	32aaLLL 32a\	.	.	8D/L	.	.	.	.	.	4d/]	8d\L	.	.	.	.	4a 4f/)	.	4ff\	.	4aa\	]]
32D/	.	32D/	.	.	.	.	.	.	.	.	.	.	32dd 32d\	.	32ff 32f\	.	32aa 32a\	.	.	.	.	.	.	.	.	.	.	.	.	.	.	.	.	.	.	.	.
32D/	.	32D/	.	.	.	.	.	.	.	.	.	.	32dd 32d\	.	32ff 32f\	.	32aa 32a\	.	.	.	.	.	.	.	.	.	.	.	.	.	.	.	.	.	.	.	.
32D/	.	32D/	.	.	.	.	.	.	.	.	.	.	32dd 32d\	.	32ff 32f\	.	32aa 32a\	.	.	.	.	.	.	.	.	.	.	.	.	.	.	.	.	.	.	.	.
32C/	.	32C/	.	8C/J)	.	.	.	.	.	.	.	.	32dd 32d\	.	32ff 32f\	.	32aa 32a\	.	.	8C/J)	.	.	.	.	.	.	8c\J	.	.	.	.	.	.	.	.	.	.
32C/	.	32C/	.	.	.	.	.	.	.	.	.	.	32dd 32d\	.	32ff 32f\	.	32aa 32a\	.	.	.	.	.	.	.	.	.	.	.	.	.	.	.	.	.	.	.	.
32C/	.	32C/	.	.	.	.	.	.	.	.	.	.	32dd 32d\	.	32ff 32f\	.	32aa 32a\	.	.	.	.	.	.	.	.	.	.	.	.	.	.	.	.	.	.	.	.
32C/JJJ	.	32C/JJJ	.	.	.	.	.	.	.	.	.	.	32ddJJJ 32d\	.	32ffJJJ 32f\	.	32aaJJJ 32a\	.	.	.	.	.	.	.	.	.	.	.	.	.	.	.	.	.	.	.	.
=24	=24	=24	=24	=24	=24	=24	=24	=24	=24	=24	=24	=24	=24	=24	=24	=24	=24	=24	=24	=24	=24	=24	=24	=24	=24	=24	=24	=24	=24	=24	=24	=24	=24	=24	=24	=24	=24
*	*	*	*	*	*	*	*	*	*	*	*	*	*	*	*	*	*	*	*	*	*	*	*	*	*	*	*	*	*	*	*	*^	*	*	*	*	*
32BB-/LLL	.	32BB-/LLL	.	(4BB-/	Stwór-	na-	.	2d\	.	(4.f/	(4.dd\	.	32ddLLL 32d\	.	32ffLLL 32f\	.	32dddLLL 32dd\	.	2.ryy	4.BB-/	.	2.ryy	2.ryy	4.dd] 4.f/]	.	2.d/	4.B-\	.	4.b-/)	4.f\]	.	(4.dd/	4.f\	.	(4.ff\	.	(4.ddd\	.
32BB-/	.	32BB-/	.	.	.	.	.	.	.	.	.	.	32dd 32d\	.	32ff 32f\	.	32ddd 32dd\	.	.	.	.	.	.	.	.	.	.	.	.	.	.	.	.	.	.	.	.	.
32BB-/	.	32BB-/	.	.	.	.	.	.	.	.	.	.	32dd 32d\	.	32ff 32f\	.	32ddd 32dd\	.	.	.	.	.	.	.	.	.	.	.	.	.	.	.	.	.	.	.	.	.
32BB-/	.	32BB-/	.	.	.	.	.	.	.	.	.	.	32dd 32d\	.	32ff 32f\	.	32ddd 32dd\	.	.	.	.	.	.	.	.	.	.	.	.	.	.	.	.	.	.	.	.	.
32BB-/	.	32BB-/	.	.	.	.	.	.	.	.	.	.	32dd 32d\	.	32ff 32f\	.	32ddd 32dd\	.	.	.	.	.	.	.	.	.	.	.	.	.	.	.	.	.	.	.	.	.
32BB-/	.	32BB-/	.	.	.	.	.	.	.	.	.	.	32dd 32d\	.	32ff 32f\	.	32ddd 32dd\	.	.	.	.	.	.	.	.	.	.	.	.	.	.	.	.	.	.	.	.	.
32BB-/	.	32BB-/	.	.	.	.	.	.	.	.	.	.	32dd 32d\	.	32ff 32f\	.	32ddd 32dd\	.	.	.	.	.	.	.	.	.	.	.	.	.	.	.	.	.	.	.	.	.
32BB-/JJJ	.	32BB-/JJJ	.	.	.	.	.	.	.	.	.	.	32dd 32d\	.	32ff 32f\	.	32ddd 32dd\	.	.	.	.	.	.	.	.	.	.	.	.	.	.	.	.	.	.	.	.	.
32B-\LLL	.	32B-\LLL	.	8B-\L	.	.	.	.	.	.	.	.	32dd 32d\	.	32ff 32f\	.	32ddd 32dd\	.	.	.	.	.	.	.	.	.	.	.	.	.	.	.	.	.	.	.	.	.
32B-\	.	32B-\	.	.	.	.	.	.	.	.	.	.	32dd 32d\	.	32ff 32f\	.	32ddd 32dd\	.	.	.	.	.	.	.	.	.	.	.	.	.	.	.	.	.	.	.	.	.
32B-\	.	32B-\	.	.	.	.	.	.	.	.	.	.	32dd 32d\	.	32ff 32f\	.	32ddd 32dd\	.	.	.	.	.	.	.	.	.	.	.	.	.	.	.	.	.	.	.	.	.
32B-\	.	32B-\	.	.	.	.	.	.	.	.	.	.	32dd 32d\	.	32ffJJJ 32f\	.	32dddJJJ 32dd\	.	.	.	.	.	.	.	.	.	.	.	.	.	.	.	.	.	.	.	.	.
*	*	*	*	*	*	*	*	*	*	*	*	*	*	*	*	*	*Xtremolo	*	*	*	*	*	*	*	*	*	*	*	*	*	*	*	*	*	*	*	*	*
32A\	.	32A\	.	8A\J)	.	.	.	.	.	8f#X/)	8cc\)	.	32dd 32d\	.	32ff#XLLL 32f#X\	.	32cccLLL 32cc\	.	.	8r	.	.	.	8r	.	.	8A\L	.	8ryy	8r	.	8cc/L	8f#X\L	.	8ff#X\L	.	8ccc\L	.
32A\	.	32A\	.	.	.	.	.	.	.	.	.	.	32dd 32d\	.	32ff# 32f#\	.	32ccc 32cc\	.	.	.	.	.	.	.	.	.	.	.	.	.	.	.	.	.	.	.	.	.
32A\	.	32A\	.	.	.	.	.	.	.	.	.	.	32dd 32d\	.	32ff# 32f#\	.	32ccc 32cc\	.	.	.	.	.	.	.	.	.	.	.	.	.	.	.	.	.	.	.	.	.
32A\	.	32A\	.	.	.	.	.	.	.	.	.	.	32dd 32d\	.	32ff# 32f#\	.	32cccJJJ 32cc\	.	.	.	.	.	.	.	.	.	.	.	.	.	.	.	.	.	.	.	.	.
*	*	*	*	*	*	*	*	*	*	*	*	*	*	*	*	*	*tremolo	*	*	*	*	*	*	*	*	*	*	*	*	*	*	*	*	*	*	*	*	*
32B-\	.	32B-\	.	(8B-\L	-cy	-sze	.	4d\	.	(8g/L	(>8b-/L	.	32dd 32d\	.	32gg 32g\	.	32bb-LLL 32b-\	.	.	4r	.	.	.	4r	.	.	8B-\	.	8ryy	8r	.	8b-/	8g\	.	8gg\	.	8bb-\	.
32B-\	.	32B-\	.	.	.	.	.	.	.	.	.	.	32dd 32d\	.	32gg 32g\	.	32bb- 32b-\	.	.	.	.	.	.	.	.	.	.	.	.	.	.	.	.	.	.	.	.	.
32B-\	.	32B-\	.	.	.	.	.	.	.	.	.	.	32dd 32d\	.	32gg 32g\	.	32bb- 32b-\	.	.	.	.	.	.	.	.	.	.	.	.	.	.	.	.	.	.	.	.	.
32B-\	.	32B-\	.	.	.	.	.	.	.	.	.	.	32dd 32d\	.	32gg 32g\	.	32bb- 32b-\	.	.	.	.	.	.	.	.	.	.	.	.	.	.	.	.	.	.	.	.	.
32Bn\	.	32Bn\	.	8Bn\J)	.	.	.	.	.	8fn/J)	8a/J)	.	32dd 32d\	.	32ffn 32fn\	.	32aa 32a\	.	.	.	.	.	.	.	.	.	8Bn\J	.	8a/	8f\	.	8a/J)	8fn\J	.	8ffn\J)	.	8aa\J	.
32B\	.	32B\	.	.	.	.	.	.	.	.	.	.	32dd 32d\	.	32ff 32f\	.	32aa 32a\	.	.	.	.	.	.	.	.	.	.	.	.	.	.	.	.	.	.	.	.	.
32B\	.	32B\	.	.	.	.	.	.	.	.	.	.	32dd 32d\	.	32ff 32f\	.	32aa 32a\	.	.	.	.	.	.	.	.	.	.	.	.	.	.	.	.	.	.	.	.	.
32B\JJJ	.	32B\JJJ	.	.	.	.	.	.	.	.	.	.	32ddJJJ 32d\	.	32ffJJJ 32f\	.	32aaJJJ 32a\	.	.	.	.	.	.	.	.	.	.	.	.	.	.	.	.	.	.	.	.	.
*	*	*	*	*	*	*	*	*	*	*	*	*	*	*	*	*	*	*	*	*	*	*	*	*	*	*v	*v	*	*	*	*	*	*	*	*	*	*	*
*	*	*	*	*	*	*	*	*	*	*	*	*	*	*	*	*	*	*	*	*	*	*	*	*	*	*	*	*v	*v	*	*	*	*	*	*	*	*
=25	=25	=25	=25	=25	=25	=25	=25	=25	=25	=25	=25	=25	=25	=25	=25	=25	=25	=25	=25	=25	=25	=25	=25	=25	=25	=25	=25	=25	=25	=25	=25	=25	=25	=25	=25	=25
32c\LLL	.	32c\LLL	.	2.c\	dar	w tej	.	2.c\	.	(4f/	2.g/	.	32ccLLL 32c\	.	32ffLLL 32f\	.	32ggLLL 32g\	.	2.ryy	2.r	.	2.ryy	2.ryy	2.r	.	2c\	.	2.g 2.c/	.	2.g/	4f\	.	(4ff\	.	2.gg\)	.
32c\	.	32c\	.	.	.	.	.	.	.	.	.	.	32cc 32c\	.	32ff 32f\	.	32gg 32g\	.	.	.	.	.	.	.	.	.	.	.	.	.	.	.	.	.	.	.
32c\	.	32c\	.	.	.	.	.	.	.	.	.	.	32cc 32c\	.	32ff 32f\	.	32gg 32g\	.	.	.	.	.	.	.	.	.	.	.	.	.	.	.	.	.	.	.
32c\	.	32c\	.	.	.	.	.	.	.	.	.	.	32cc 32c\	.	32ff 32f\	.	32gg 32g\	.	.	.	.	.	.	.	.	.	.	.	.	.	.	.	.	.	.	.
32c\	.	32c\	.	.	.	.	.	.	.	.	.	.	32cc 32c\	.	32ff 32f\	.	32gg 32g\	.	.	.	.	.	.	.	.	.	.	.	.	.	.	.	.	.	.	.
32c\	.	32c\	.	.	.	.	.	.	.	.	.	.	32cc 32c\	.	32ff 32f\	.	32gg 32g\	.	.	.	.	.	.	.	.	.	.	.	.	.	.	.	.	.	.	.
32c\	.	32c\	.	.	.	.	.	.	.	.	.	.	32cc 32c\	.	32ff 32f\	.	32gg 32g\	.	.	.	.	.	.	.	.	.	.	.	.	.	.	.	.	.	.	.
32c\	.	32c\	.	.	.	.	.	.	.	.	.	.	32cc 32c\	.	32ffJJJ 32f\	.	32gg 32g\	.	.	.	.	.	.	.	.	.	.	.	.	.	.	.	.	.	.	.
32c\	.	32c\	.	.	.	.	.	.	.	8e/L	.	.	32cc 32c\	.	32eeLLL 32e\	.	32gg 32g\	.	.	.	.	.	.	.	.	.	.	.	.	.	8e\L	.	8ee\L	.	.	.
32c\	.	32c\	.	.	.	.	.	.	.	.	.	.	32cc 32c\	.	32ee 32e\	.	32gg 32g\	.	.	.	.	.	.	.	.	.	.	.	.	.	.	.	.	.	.	.
32c\	.	32c\	.	.	.	.	.	.	.	.	.	.	32cc 32c\	.	32ee 32e\	.	32gg 32g\	.	.	.	.	.	.	.	.	.	.	.	.	.	.	.	.	.	.	.
32c\	.	32c\	.	.	.	.	.	.	.	.	.	.	32cc 32c\	.	32ee 32e\	.	32gg 32g\	.	.	.	.	.	.	.	.	.	.	.	.	.	.	.	.	.	.	.
32c\	.	32c\	.	.	.	.	.	.	.	8d/J	.	.	32cc 32c\	.	32dd 32d\	.	32gg 32g\	.	.	.	.	.	.	.	.	.	.	.	.	.	8d\J	.	8dd\J	.	.	.
32c\	.	32c\	.	.	.	.	.	.	.	.	.	.	32cc 32c\	.	32dd 32d\	.	32gg 32g\	.	.	.	.	.	.	.	.	.	.	.	.	.	.	.	.	.	.	.
32c\	.	32c\	.	.	.	.	.	.	.	.	.	.	32cc 32c\	.	32dd 32d\	.	32gg 32g\	.	.	.	.	.	.	.	.	.	.	.	.	.	.	.	.	.	.	.
32c\	.	32c\	.	.	.	.	.	.	.	.	.	.	32cc 32c\	.	32ddJJJ 32d\	.	32gg 32g\	.	.	.	.	.	.	.	.	.	.	.	.	.	.	.	.	.	.	.
32c\	.	32c\	.	.	.	.	.	.	.	4e/)	.	.	32cc 32c\	.	32eeLLL 32e\	.	32gg 32g\	.	.	.	.	.	.	.	.	4c 4C\	.	.	.	.	4e\	.	4ee\)	.	.	.
32c\	.	32c\	.	.	.	.	.	.	.	.	.	.	32cc 32c\	.	32ee 32e\	.	32gg 32g\	.	.	.	.	.	.	.	.	.	.	.	.	.	.	.	.	.	.	.
32c\	.	32c\	.	.	.	.	.	.	.	.	.	.	32cc 32c\	.	32ee 32e\	.	32gg 32g\	.	.	.	.	.	.	.	.	.	.	.	.	.	.	.	.	.	.	.
32c\	.	32c\	.	.	.	.	.	.	.	.	.	.	32cc 32c\	.	32ee 32e\	.	32gg 32g\	.	.	.	.	.	.	.	.	.	.	.	.	.	.	.	.	.	.	.
32c\	.	32c\	.	.	.	.	.	.	.	.	.	.	32cc 32c\	.	32ee 32e\	.	32gg 32g\	.	.	.	.	.	.	.	.	.	.	.	.	.	.	.	.	.	.	.
32c\	.	32c\	.	.	.	.	.	.	.	.	.	.	32cc 32c\	.	32ee 32e\	.	32gg 32g\	.	.	.	.	.	.	.	.	.	.	.	.	.	.	.	.	.	.	.
32c\	.	32c\	.	.	.	.	.	.	.	.	.	.	32cc 32c\	.	32ee 32e\	.	32gg 32g\	.	.	.	.	.	.	.	.	.	.	.	.	.	.	.	.	.	.	.
32c\JJJ	.	32c\JJJ	.	.	.	.	.	.	.	.	.	.	32ccJJJ 32c\	.	32eeJJJ 32e\	.	32ggJJJ 32g\	.	.	.	.	.	.	.	.	.	.	.	.	.	.	.	.	.	.	.
=26	=26	=26	=26	=26	=26	=26	=26	=26	=26	=26	=26	=26	=26	=26	=26	=26	=26	=26	=26	=26	=26	=26	=26	=26	=26	=26	=26	=26	=26	=26	=26	=26	=26	=26	=26	=26
*	*	*	*	*	*	*	*	*	*	*	*	*	*	*	*	*	*	*	*	*	*	*	*	*	*	*^	*	*^	*	*	*	*	*	*	*	*
!	!	!	!	!	!	!	!	!	!	!	!	!	!LO:TX:t=P:problem=niepewna wysokość wyższej nuty	!	!	!	!	!	!	!	!	!	!	!	!	!	!	!	!	!	!	!LO:TX:t=P:problem=błędne wyświetlanie łuku	!	!	!	!	!	!
32B-^<\LLL	.	32B-yy^<\LLL	.	2B-\	Ty	Du-	.	2c\	.	2e/	2dd\	.	32ccLLL 32c\	.	32eeLLL 32e\	.	32dddLLL 32dd^<\	.	2.ryy	(2B-\	sf	2.ryy	2.ryy	(2dd (2e/	sf	2B-/	4BB-|>\	f	2g^/ 2c/	2ryy	sf	(2dd/	(>2g\	.	2ee\	.	(2ddd^<\	sfz
32B-\	.	32B-yy\	.	.	.	.	.	.	.	.	.	.	32cc 32c\	.	32ee 32e\	.	32ddd 32dd\	.	.	.	.	.	.	.	.	.	.	.	.	.	.	.	.	.	.	.	.	.
32B-\	.	32B-yy\	.	.	.	.	.	.	.	.	.	.	32cc 32c\	.	32ee 32e\	.	32ddd 32dd\	.	.	.	.	.	.	.	.	.	.	.	.	.	.	.	.	.	.	.	.	.
32B-\	.	32B-yy\	.	.	.	.	.	.	.	.	.	.	32cc 32c\	.	32ee 32e\	.	32ddd 32dd\	.	.	.	.	.	.	.	.	.	.	.	.	.	.	.	.	.	.	.	.	.
32B-\	.	32B-yy\	.	.	.	.	.	.	.	.	.	.	32cc 32c\	.	32ee 32e\	.	32ddd 32dd\	.	.	.	.	.	.	.	.	.	.	.	.	.	.	.	.	.	.	.	.	.
32B-\	.	32B-yy\	.	.	.	.	.	.	.	.	.	.	32cc 32c\	.	32ee 32e\	.	32ddd 32dd\	.	.	.	.	.	.	.	.	.	.	.	.	.	.	.	.	.	.	.	.	.
32B-\	.	32B-yy\	.	.	.	.	.	.	.	.	.	.	32cc 32c\	.	32ee 32e\	.	32ddd 32dd\	.	.	.	.	.	.	.	.	.	.	.	.	.	.	.	.	.	.	.	.	.
32B-\	.	32B-yy\	.	.	.	.	.	.	.	.	.	.	32cc 32c\	.	32ee 32e\	.	32ddd 32dd\	.	.	.	.	.	.	.	.	.	.	.	.	.	.	.	.	.	.	.	.	.
32B-\	.	32B-yy\	.	.	.	.	.	.	.	.	.	.	32cc 32c\	.	32ee 32e\	.	32ddd 32dd\	.	.	.	.	.	.	.	.	.	(>4B-\	.	.	.	.	.	.	.	.	.	.	.
32B-\	.	32B-yy\	.	.	.	.	.	.	.	.	.	.	32cc 32c\	.	32ee 32e\	.	32ddd 32dd\	.	.	.	.	.	.	.	.	.	.	.	.	.	.	.	.	.	.	.	.	.
32B-\	.	32B-yy\	.	.	.	.	.	.	.	.	.	.	32cc 32c\	.	32ee 32e\	.	32ddd 32dd\	.	.	.	.	.	.	.	.	.	.	.	.	.	.	.	.	.	.	.	.	.
32B-\	.	32B-yy\	.	.	.	.	.	.	.	.	.	.	32cc 32c\	.	32ee 32e\	.	32ddd 32dd\	.	.	.	.	.	.	.	.	.	.	.	.	.	.	.	.	.	.	.	.	.
32B-\	.	32B-yy\	.	.	.	.	.	.	.	.	.	.	32cc 32c\	.	32ee 32e\	.	32ddd 32dd\	.	.	.	.	.	.	.	.	.	.	.	.	.	.	.	.	.	.	.	.	.
32B-\	.	32B-yy\	.	.	.	.	.	.	.	.	.	.	32cc 32c\	.	32ee 32e\	.	32ddd 32dd\	.	.	.	.	.	.	.	.	.	.	.	.	.	.	.	.	.	.	.	.	.
32B-\	.	32B-yy\	.	.	.	.	.	.	.	.	.	.	32cc 32c\	.	32ee 32e\	.	32ddd 32dd\	.	.	.	.	.	.	.	.	.	.	.	.	.	.	.	.	.	.	.	.	.
32B-\JJJ	.	32B-yy\JJJ	.	.	.	.	.	.	.	.	.	.	32cc 32c\	.	32eeJJJ 32e\	.	32dddJJJ 32dd\	.	.	.	.	.	.	.	.	.	.	.	.	.	.	.	.	.	.	.	.	.
32A\LLL	.	32Ayy\LLL	.	4A\	w nas	-szy	.	4c\	.	4f/	4cc\	.	32cc 32c\	.	32ffLLL 32f\	.	32cccLLL 32cc\	.	.	4A\)	.	.	.	4cc 4f/))	.	4A/	4A\)	.	4a/	4f\	.	4cc/)	4f\)	.	4ff\	.	4ccc\)	.
32A\	.	32Ayy\	.	.	.	.	.	.	.	.	.	.	32cc 32c\	.	32ff 32f\	.	32ccc 32cc\	.	.	.	.	.	.	.	.	.	.	.	.	.	.	.	.	.	.	.	.	.
32A\	.	32Ayy\	.	.	.	.	.	.	.	.	.	.	32cc 32c\	.	32ff 32f\	.	32ccc 32cc\	.	.	.	.	.	.	.	.	.	.	.	.	.	.	.	.	.	.	.	.	.
32A\	.	32Ayy\	.	.	.	.	.	.	.	.	.	.	32cc 32c\	.	32ff 32f\	.	32ccc 32cc\	.	.	.	.	.	.	.	.	.	.	.	.	.	.	.	.	.	.	.	.	.
32A\	.	32Ayy\	.	.	.	.	.	.	.	.	.	.	32cc 32c\	.	32ff 32f\	.	32ccc 32cc\	.	.	.	.	.	.	.	.	.	.	.	.	.	.	.	.	.	.	.	.	.
32A\	.	32Ayy\	.	.	.	.	.	.	.	.	.	.	32cc 32c\	.	32ff 32f\	.	32ccc 32cc\	.	.	.	.	.	.	.	.	.	.	.	.	.	.	.	.	.	.	.	.	.
32A\	.	32Ayy\	.	.	.	.	.	.	.	.	.	.	32cc 32c\	.	32ff 32f\	.	32ccc 32cc\	.	.	.	.	.	.	.	.	.	.	.	.	.	.	.	.	.	.	.	.	.
32A\JJJ	.	32Ayy\JJJ	.	.	.	.	.	.	.	.	.	.	32ccJJJ 32c\	.	32ffJJJ 32f\	.	32cccJJJ 32cc\	.	.	.	.	.	.	.	.	.	.	.	.	.	.	.	.	.	.	.	.	.
=27	=27	=27	=27	=27	=27	=27	=27	=27	=27	=27	=27	=27	=27	=27	=27	=27	=27	=27	=27	=27	=27	=27	=27	=27	=27	=27	=27	=27	=27	=27	=27	=27	=27	=27	=27	=27	=27	=27
*	*	*	*	*	*	*	*	*	*	*	*	*	*	*	*	*	*	*	*	*	*	*	*	*^	*	*	*	*	*	*	*	*	*	*	*	*	*	*
32G\LLL	.	32Gyy\LLL	.	2G\	cno-	mo-	.	(4d\	.	(4d/	(4.cc\	.	32d\LLL	.	32ddLLL 32d/	.	32ccc\LLL	.	2.ryy	(2G\	.	2.ryy	2.ryy	(4.cc/	2e\	.	(2G/	2G\	.	2g/	2g\	.	(4.cc/	4g\	.	(4dd\	.	(4.ccc\	.
32G\	.	32Gyy\	.	.	.	.	.	.	.	.	.	.	32d\	.	32dd 32d/	.	32ccc\	.	.	.	.	.	.	.	.	.	.	.	.	.	.	.	.	.	.	.	.	.	.
32G\	.	32Gyy\	.	.	.	.	.	.	.	.	.	.	32d\	.	32dd 32d/	.	32ccc\	.	.	.	.	.	.	.	.	.	.	.	.	.	.	.	.	.	.	.	.	.	.
32G\	.	32Gyy\	.	.	.	.	.	.	.	.	.	.	32d\	.	32dd 32d/	.	32ccc\	.	.	.	.	.	.	.	.	.	.	.	.	.	.	.	.	.	.	.	.	.	.
32G\	.	32Gyy\	.	.	.	.	.	.	.	.	.	.	32d\	.	32dd 32d/	.	32ccc\	.	.	.	.	.	.	.	.	.	.	.	.	.	.	.	.	.	.	.	.	.	.
32G\	.	32Gyy\	.	.	.	.	.	.	.	.	.	.	32d\	.	32dd 32d/	.	32ccc\	.	.	.	.	.	.	.	.	.	.	.	.	.	.	.	.	.	.	.	.	.	.
32G\	.	32Gyy\	.	.	.	.	.	.	.	.	.	.	32d\	.	32dd 32d/	.	32ccc\	.	.	.	.	.	.	.	.	.	.	.	.	.	.	.	.	.	.	.	.	.	.
32G\	.	32Gyy\	.	.	.	.	.	.	.	.	.	.	32d\JJJ	.	32ddJJJ 32d/	.	32ccc\	.	.	.	.	.	.	.	.	.	.	.	.	.	.	.	.	.	.	.	.	.	.
32G\	.	32Gyy\	.	.	.	.	.	4c\)	.	4e/)	.	.	32c\LLL	.	32eeLLL 32e/	.	32ccc\	.	.	.	.	.	.	.	.	.	.	.	.	.	.	.	.	4e\	.	4ee\	.	.	.
32G\	.	32Gyy\	.	.	.	.	.	.	.	.	.	.	32c\	.	32ee 32e/	.	32ccc\	.	.	.	.	.	.	.	.	.	.	.	.	.	.	.	.	.	.	.	.	.	.
32G\	.	32Gyy\	.	.	.	.	.	.	.	.	.	.	32c\	.	32ee 32e/	.	32ccc\	.	.	.	.	.	.	.	.	.	.	.	.	.	.	.	.	.	.	.	.	.	.
32G\	.	32Gyy\	.	.	.	.	.	.	.	.	.	.	32c\	.	32ee 32e/	.	32ccc\JJJ	.	.	.	.	.	.	.	.	.	.	.	.	.	.	.	.	.	.	.	.	.	.
*	*	*	*	*	*	*	*	*	*	*	*	*	*	*	*	*	*Xtremolo	*	*	*	*	*	*	*	*	*	*	*	*	*	*	*	*	*	*	*	*	*	*
32G\	.	32Gyy\	.	.	.	.	.	.	.	.	8b-\)	.	32c\	.	32ee 32e/	.	32bb-LLL 32b-\	.	.	.	.	.	.	8b-/	.	.	.	.	.	.	.	.	8b-/	.	.	.	.	8bb-\	.
32G\	.	32Gyy\	.	.	.	.	.	.	.	.	.	.	32c\	.	32ee 32e/	.	32bb- 32b-\	.	.	.	.	.	.	.	.	.	.	.	.	.	.	.	.	.	.	.	.	.	.
32G\	.	32Gyy\	.	.	.	.	.	.	.	.	.	.	32c\	.	32ee 32e/	.	32bb- 32b-\	.	.	.	.	.	.	.	.	.	.	.	.	.	.	.	.	.	.	.	.	.	.
32G\JJJ	.	32Gyy\JJJ	.	.	.	.	.	.	.	.	.	.	32c\JJJ	.	32eeJJJ 32e/	.	32bb-JJJ 32b-\	.	.	.	.	.	.	.	.	.	.	.	.	.	.	.	.	.	.	.	.	.	.
*	*	*	*	*	*	*	*	*	*	*	*	*	*	*	*	*	*tremolo	*	*	*	*	*	*	*	*	*	*	*	*	*	*	*	*	*	*	*	*	*	*
32F\LLL	.	32Fyy\LLL	.	4F\	-ty	-cy	.	4c\	.	4f/	4a/	.	32c\LLL	.	32ffLLL 32f\	.	32aaLLL 32a\	.	.	4F\)	.	.	.	4a/)	4f\	.	4F/)	4F\	.	4f/	4f\	.	(4a/)	4f\	.	4ff\)	.	4aa\)	.
32F\	.	32Fyy\	.	.	.	.	.	.	.	.	.	.	32c\	.	32ff 32f\	.	32aa 32a\	.	.	.	.	.	.	.	.	.	.	.	.	.	.	.	.	.	.	.	.	.	.
32F\	.	32Fyy\	.	.	.	.	.	.	.	.	.	.	32c\	.	32ff 32f\	.	32aa 32a\	.	.	.	.	.	.	.	.	.	.	.	.	.	.	.	.	.	.	.	.	.	.
32F\	.	32Fyy\	.	.	.	.	.	.	.	.	.	.	32c\	.	32ff 32f\	.	32aa 32a\	.	.	.	.	.	.	.	.	.	.	.	.	.	.	.	.	.	.	.	.	.	.
32F\	.	32Fyy\	.	.	.	.	.	.	.	.	.	.	32c\	.	32ff 32f\	.	32aa 32a\	.	.	.	.	.	.	.	.	.	.	.	.	.	.	.	.	.	.	.	.	.	.
32F\	.	32Fyy\	.	.	.	.	.	.	.	.	.	.	32c\	.	32ff 32f\	.	32aa 32a\	.	.	.	.	.	.	.	.	.	.	.	.	.	.	.	.	.	.	.	.	.	.
32F\	.	32Fyy\	.	.	.	.	.	.	.	.	.	.	32c\	.	32ff 32f\	.	32aa 32a\	.	.	.	.	.	.	.	.	.	.	.	.	.	.	.	.	.	.	.	.	.	.
32F\JJJ	.	32Fyy\JJJ	.	.	.	.	.	.	.	.	.	.	32c\JJJ	.	32ffJJJ 32f\	.	32aaJJJ 32a\	.	.	.	.	.	.	.	.	.	.	.	.	.	.	.	.	.	.	.	.	.	.
*	*	*	*	*	*	*	*	*	*	*	*	*	*	*	*	*	*	*	*	*	*	*	*	*v	*v	*	*	*	*	*v	*v	*	*	*	*	*	*	*	*
*	*	*	*	*	*	*	*	*	*	*	*	*	*	*	*	*	*	*	*	*	*	*	*	*	*	*v	*v	*	*	*	*	*	*	*	*	*	*
!!LO:PB:g=original
=28	=28	=28	=28	=28	=28	=28	=28	=28	=28	=28	=28	=28	=28	=28	=28	=28	=28	=28	=28	=28	=28	=28	=28	=28	=28	=28	=28	=28	=28	=28	=28	=28	=28	=28	=28	=28
32C/LLL	.	32Cyy/LLL	.	2C/	wzmc-	u-	.	2c\	.	(>4f/	2g/	.	32c\LLL	.	32ffLLL 32f\	.	32ggLLL 32g\	.	2.ryy	2.r	.	2.ryy	2.ryy	2.r	.	2.C/	.	2.g 2.c/	p	(2g/)	4f\	.	(4ff\	.	(2gg\	.
32C/	.	32Cyy/	.	.	.	.	.	.	.	.	.	.	32c\	.	32ff 32f\	.	32gg 32g\	.	.	.	.	.	.	.	.	.	.	.	.	.	.	.	.	.	.	.
32C/	.	32Cyy/	.	.	.	.	.	.	.	.	.	.	32c\	.	32ff 32f\	.	32gg 32g\	.	.	.	.	.	.	.	.	.	.	.	.	.	.	.	.	.	.	.
32C/	.	32Cyy/	.	.	.	.	.	.	.	.	.	.	32c\	.	32ff 32f\	.	32gg 32g\	.	.	.	.	.	.	.	.	.	.	.	.	.	.	.	.	.	.	.
32C/	.	32Cyy/	.	.	.	.	.	.	.	.	.	.	32c\	.	32ff 32f\	.	32gg 32g\	.	.	.	.	.	.	.	.	.	.	.	.	.	.	.	.	.	.	.
32C/	.	32Cyy/	.	.	.	.	.	.	.	.	.	.	32c\	.	32ff 32f\	.	32gg 32g\	.	.	.	.	.	.	.	.	.	.	.	.	.	.	.	.	.	.	.
32C/	.	32Cyy/	.	.	.	.	.	.	.	.	.	.	32c\	.	32ff 32f\	.	32gg 32g\	.	.	.	.	.	.	.	.	.	.	.	.	.	.	.	.	.	.	.
32C/	.	32Cyy/	.	.	.	.	.	.	.	.	.	.	32c\	.	32ffJJJ 32f\	.	32gg 32g\	.	.	.	.	.	.	.	.	.	.	.	.	.	.	.	.	.	.	.
32C/	.	32Cyy/	.	.	.	.	.	.	.	8e/L	.	.	32c\	.	32eeLLL 32e\	.	32gg 32g\	.	.	.	.	.	.	.	.	.	.	.	.	.	8e\L	.	8ee\L	.	.	.
32C/	.	32Cyy/	.	.	.	.	.	.	.	.	.	.	32c\	.	32ee 32e\	.	32gg 32g\	.	.	.	.	.	.	.	.	.	.	.	.	.	.	.	.	.	.	.
32C/	.	32Cyy/	.	.	.	.	.	.	.	.	.	.	32c\	.	32ee 32e\	.	32gg 32g\	.	.	.	.	.	.	.	.	.	.	.	.	.	.	.	.	.	.	.
32C/	.	32Cyy/	.	.	.	.	.	.	.	.	.	.	32c\	.	32ee 32e\	.	32gg 32g\	.	.	.	.	.	.	.	.	.	.	.	.	.	.	.	.	.	.	.
32C/	.	32Cyy/	.	.	.	.	.	.	.	8d/J	.	.	32c\	.	32dd 32d\	.	32gg 32g\	.	.	.	.	.	.	.	.	.	.	.	.	.	8d\J	.	8dd\J	.	.	.
32C/	.	32Cyy/	.	.	.	.	.	.	.	.	.	.	32c\	.	32dd 32d\	.	32gg 32g\	.	.	.	.	.	.	.	.	.	.	.	.	.	.	.	.	.	.	.
32C/	.	32Cyy/	.	.	.	.	.	.	.	.	.	.	32c\	.	32dd 32d\	.	32gg 32g\	.	.	.	.	.	.	.	.	.	.	.	.	.	.	.	.	.	.	.
32C/	.	32Cyy/	.	.	.	.	.	.	.	.	.	.	32c\	.	32ddJJJ 32d\	.	32ggJJJ 32g\	.	.	.	.	.	.	.	.	.	.	.	.	.	.	.	.	.	.	.
32C/	.	32Cyy/	.	4C/	-niay	-dziel	.	4c\	.	4e/)	4cc\	.	32c\	.	32eeLLL 32e\	.	32cccLLL 32cc\	.	.	.	.	.	.	.	.	.	.	.	.	4cc/)	4e\	.	4ee\)	.	4ccc\)	.
32C/	.	32Cyy/	.	.	.	.	.	.	.	.	.	.	32c\	.	32ee 32e\	.	32ccc 32cc\	.	.	.	.	.	.	.	.	.	.	.	.	.	.	.	.	.	.	.
32C/	.	32Cyy/	.	.	.	.	.	.	.	.	.	.	32c\	.	32ee 32e\	.	32ccc 32cc\	.	.	.	.	.	.	.	.	.	.	.	.	.	.	.	.	.	.	.
32C/	.	32Cyy/	.	.	.	.	.	.	.	.	.	.	32c\	.	32ee 32e\	.	32ccc 32cc\	.	.	.	.	.	.	.	.	.	.	.	.	.	.	.	.	.	.	.
32C/	.	32Cyy/	.	.	.	.	.	.	.	.	.	.	32c\	.	32ee 32e\	.	32ccc 32cc\	.	.	.	.	.	.	.	.	.	.	.	.	.	.	.	.	.	.	.
32C/	.	32Cyy/	.	.	.	.	.	.	.	.	.	.	32c\	.	32ee 32e\	.	32ccc 32cc\	.	.	.	.	.	.	.	.	.	.	.	.	.	.	.	.	.	.	.
32C/	.	32Cyy/	.	.	.	.	.	.	.	.	.	.	32c\	.	32ee 32e\	.	32ccc 32cc\	.	.	.	.	.	.	.	.	.	.	.	.	.	.	.	.	.	.	.
32C/JJJ	.	32Cyy/JJJ	.	.	.	.	.	.	.	.	.	.	32c\JJJ	.	32eeJJJ 32e\	.	32cccJJJ 32cc\	.	.	.	.	.	.	.	.	.	.	.	.	.	.	.	.	.	.	.
=29	=29	=29	=29	=29	=29	=29	=29	=29	=29	=29	=29	=29	=29	=29	=29	=29	=29	=29	=29	=29	=29	=29	=29	=29	=29	=29	=29	=29	=29	=29	=29	=29	=29	=29	=29	=29
*	*	*	*	*	*	*	*	*	*	*	*	*	*	*	*	*	*	*	*	*	*	*	*	*	*	*^	*	*^	*	*	*	*	*	*	*	*
32F\LLL	.	32Fyy\LLL	.	([4F\	żar	Twej	.	(2c\	.	2.f/	2.a/	.	32c\LLL	.	32ffLLL 32f\	.	32aaLLL 32a\	.	2.ryy	2.r	.	2.ryy	2.ryy	4r	.	4F/	4F\	.	2.a/	2.f\	.	2.a/	2.f\	.	[2.ff\	.	2.aa\	.
32F\	.	32Fyy\	.	.	.	.	.	.	.	.	.	.	32c\	.	32ff 32f\	.	32aa 32a\	.	.	.	.	.	.	.	.	.	.	.	.	.	.	.	.	.	.	.	.	.
32F\	.	32Fyy\	.	.	.	.	.	.	.	.	.	.	32c\	.	32ff 32f\	.	32aa 32a\	.	.	.	.	.	.	.	.	.	.	.	.	.	.	.	.	.	.	.	.	.
32F\	.	32Fyy\	.	.	.	.	.	.	.	.	.	.	32c\	.	32ff 32f\	.	32aa 32a\	.	.	.	.	.	.	.	.	.	.	.	.	.	.	.	.	.	.	.	.	.
32F\	.	32Fyy\	.	.	.	.	.	.	.	.	.	.	32c\	.	32ff 32f\	.	32aa 32a\	.	.	.	.	.	.	.	.	.	.	.	.	.	.	.	.	.	.	.	.	.
32F\	.	32Fyy\	.	.	.	.	.	.	.	.	.	.	32c\	.	32ff 32f\	.	32aa 32a\	.	.	.	.	.	.	.	.	.	.	.	.	.	.	.	.	.	.	.	.	.
32F\	.	32Fyy\	.	.	.	.	.	.	.	.	.	.	32c\	.	32ff 32f\	.	32aa 32a\	.	.	.	.	.	.	.	.	.	.	.	.	.	.	.	.	.	.	.	.	.
32F\JJJ	.	32Fyy\JJJ	.	.	.	.	.	.	.	.	.	.	32c\	.	32ff 32f\	.	32aa 32a\	.	.	.	.	.	.	.	.	.	.	.	.	.	.	.	.	.	.	.	.	.
32F\LLL	.	32Fyy\LLL	.	8F\L]	.	.	.	.	.	.	.	.	32c\	.	32ff 32f\	.	32aa 32a\	.	.	.	.	.	.	4r	.	(8fL 8F\	2ryy	.	.	.	.	.	.	.	.	.	.	.
32F\	.	32Fyy\	.	.	.	.	.	.	.	.	.	.	32c\	.	32ff 32f\	.	32aa 32a\	.	.	.	.	.	.	.	.	.	.	.	.	.	.	.	.	.	.	.	.	.
32F\	.	32Fyy\	.	.	.	.	.	.	.	.	.	.	32c\	.	32ff 32f\	.	32aa 32a\	.	.	.	.	.	.	.	.	.	.	.	.	.	.	.	.	.	.	.	.	.
32F\	.	32Fyy\	.	.	.	.	.	.	.	.	.	.	32c\	.	32ff 32f\	.	32aa 32a\	.	.	.	.	.	.	.	.	.	.	.	.	.	.	.	.	.	.	.	.	.
32E\	.	32Eyy\	.	8E\	.	.	.	.	.	.	.	.	32c\	.	32ff 32f\	.	32aa 32a\	.	.	.	.	.	.	.	.	8e 8E\	.	.	.	.	.	.	.	.	.	.	.	.
32E\	.	32Eyy\	.	.	.	.	.	.	.	.	.	.	32c\	.	32ff 32f\	.	32aa 32a\	.	.	.	.	.	.	.	.	.	.	.	.	.	.	.	.	.	.	.	.	.
32E\	.	32Eyy\	.	.	.	.	.	.	.	.	.	.	32c\	.	32ff 32f\	.	32aa 32a\	.	.	.	.	.	.	.	.	.	.	.	.	.	.	.	.	.	.	.	.	.
32E\	.	32Eyy\	.	.	.	.	.	.	.	.	.	.	32c\JJJ	.	32ff 32f\	.	32aa 32a\	.	.	.	.	.	.	.	.	.	.	.	.	.	.	.	.	.	.	.	.	.
32D\	.	32Dyy\	.	8D\	.	.	.	4d\)	.	.	.	.	32d\LLL	.	32ff 32f\	.	32aa 32a\	.	.	.	.	.	.	[4dd [4d/	.	8d 8D\	.	.	.	.	.	.	.	.	.	.	.	.
32D\	.	32Dyy\	.	.	.	.	.	.	.	.	.	.	32d\	.	32ff 32f\	.	32aa 32a\	.	.	.	.	.	.	.	.	.	.	.	.	.	.	.	.	.	.	.	.	.
32D\	.	32Dyy\	.	.	.	.	.	.	.	.	.	.	32d\	.	32ff 32f\	.	32aa 32a\	.	.	.	.	.	.	.	.	.	.	.	.	.	.	.	.	.	.	.	.	.
32D\	.	32Dyy\	.	.	.	.	.	.	.	.	.	.	32d\	.	32ff 32f\	.	32aa 32a\	.	.	.	.	.	.	.	.	.	.	.	.	.	.	.	.	.	.	.	.	.
32C\	.	32Cyy\	.	8C\J)	.	.	.	.	.	.	.	.	32d\	.	32ff 32f\	.	32aa 32a\	.	.	.	.	.	.	.	.	8cJ 8C\	.	.	.	.	.	.	.	.	.	.	.	.
32C\	.	32Cyy\	.	.	.	.	.	.	.	.	.	.	32d\	.	32ff 32f\	.	32aa 32a\	.	.	.	.	.	.	.	.	.	.	.	.	.	.	.	.	.	.	.	.	.
32C\	.	32Cyy\	.	.	.	.	.	.	.	.	.	.	32d\	.	32ff 32f\	.	32aa 32a\	.	.	.	.	.	.	.	.	.	.	.	.	.	.	.	.	.	.	.	.	.
32C\JJJ	.	32Cyy\JJJ	.	.	.	.	.	.	.	.	.	.	32d\JJJ	.	32ffJJJ 32f\	.	32aaJJJ 32a\	.	.	.	.	.	.	.	.	.	.	.	.	.	.	.	.	.	.	.	.	.
*	*	*	*	*	*	*	*	*	*	*	*	*	*	*	*	*	*	*	*	*	*	*	*	*	*	*v	*v	*	*	*	*	*	*	*	*	*	*	*
=30	=30	=30	=30	=30	=30	=30	=30	=30	=30	=30	=30	=30	=30	=30	=30	=30	=30	=30	=30	=30	=30	=30	=30	=30	=30	=30	=30	=30	=30	=30	=30	=30	=30	=30	=30	=30	=30
!	!	!	!	!	!	!	!LO:DY:a	!	!	!	!	!	!	!	!	!	!	!LO:HP:a	!	!	!	!	!	!	!	!	!	!	!	!	!	!	!	!	!	!	!LO:HP:a
32BB-/LLL	<	32BB-yy/LLL	<	2BB-/	Ty	Du-	<	2d\	.	2f/	(4..g/	<	32d\LLL	.	32ffLLL 32f\	.	32ggLLL 32g\	<	2.ryy	4r	.	2.ryy	2.ryy	2dd] 2d/]	.	2B- 2BB-\)	.	2g/	2f\	<	2g/	2f\	<	2ff\]	.	2gg\	<
32BB-/	.	32BB-yy/	.	.	.	.	.	.	.	.	.	.	32d\	.	32ff 32f\	.	32gg 32g\	.	.	.	.	.	.	.	.	.	.	.	.	.	.	.	.	.	.	.	.
32BB-/	.	32BB-yy/	.	.	.	.	.	.	.	.	.	.	32d\	.	32ff 32f\	.	32gg 32g\	.	.	.	.	.	.	.	.	.	.	.	.	.	.	.	.	.	.	.	.
32BB-/	.	32BB-yy/	.	.	.	.	.	.	.	.	.	.	32d\	.	32ff 32f\	.	32gg 32g\	.	.	.	.	.	.	.	.	.	.	.	.	.	.	.	.	.	.	.	.
32BB-/	.	32BB-yy/	.	.	.	.	.	.	.	.	.	.	32d\	.	32ff 32f\	.	32gg 32g\	.	.	.	.	.	.	.	.	.	.	.	.	.	.	.	.	.	.	.	.
32BB-/	.	32BB-yy/	.	.	.	.	.	.	.	.	.	.	32d\	.	32ff 32f\	.	32gg 32g\	.	.	.	.	.	.	.	.	.	.	.	.	.	.	.	.	.	.	.	.
32BB-/	.	32BB-yy/	.	.	.	.	.	.	.	.	.	.	32d\	.	32ff 32f\	.	32gg 32g\	.	.	.	.	.	.	.	.	.	.	.	.	.	.	.	.	.	.	.	.
32BB-/	.	32BB-yy/	.	.	.	.	.	.	.	.	.	.	32d\	.	32ff 32f\	.	32gg 32g\	.	.	.	.	.	.	.	.	.	.	.	.	.	.	.	.	.	.	.	.
32BB-/	.	32BB-yy/	.	.	.	.	.	.	.	.	.	.	32d\	.	32ff 32f\	.	32gg 32g\	.	.	4r	.	.	.	.	.	.	.	.	.	.	.	.	.	.	.	.	.
32BB-/	.	32BB-yy/	.	.	.	.	.	.	.	.	.	.	32d\	.	32ff 32f\	.	32gg 32g\	.	.	.	.	.	.	.	.	.	.	.	.	.	.	.	.	.	.	.	.
32BB-/	.	32BB-yy/	.	.	.	.	.	.	.	.	.	.	32d\	.	32ff 32f\	.	32gg 32g\	.	.	.	.	.	.	.	.	.	.	.	.	.	.	.	.	.	.	.	.
32BB-/	.	32BB-yy/	.	.	.	.	.	.	.	.	.	.	32d\	.	32ff 32f\	.	32gg 32g\	.	.	.	.	.	.	.	.	.	.	.	.	.	.	.	.	.	.	.	.
32BB-/	.	32BB-yy/	.	.	.	.	.	.	.	.	.	.	32d\	.	32ff 32f\	.	32gg 32g\	.	.	.	.	.	.	.	.	.	.	.	.	.	.	.	.	.	.	.	.
32BB-/	.	32BB-yy/	.	.	.	.	.	.	.	.	.	.	32d\	.	32ff 32f\	.	32gg 32g\	.	.	.	.	.	.	.	.	.	.	.	.	.	.	.	.	.	.	.	.
32BB-/	.	32BB-yy/	.	.	.	.	.	.	.	.	16dd\)	.	32d\	.	32ff 32f\	.	32gg 32g\	.	.	.	.	.	.	.	.	.	.	.	.	.	.	.	.	.	.	.	.
32BB-/JJJ	.	32BB-yy/JJJ	.	.	.	.	.	.	.	.	.	.	32d\JJJ	.	32ffJJJ 32f\	.	32ggJJJ 32g\	.	.	.	.	.	.	.	.	.	.	.	.	.	.	.	.	.	.	.	.
!	!	!	!	!	!	!	!	!	!	!	!	!	!	!	!	!	!	!LO:DY:a	!	!	!	!	!	!	!	!	!	!	!	!	!	!	!	!	!	!	!LO:DY:a
!	!	!	!	!	!	!	!LO:DY:a	!	!	!	!	!	!	!	!	!	!	!LO:HP:a	!	!	!	!	!	!	!	!	!	!	!	!	!	!	!	!	!	!	!LO:DY:a
32BBn/LLL	[ sf >	32BBnyy/LLL	[ sfyy >	4BBn/	w nas	-szy	[ > ]]	4f\	.	4a-X/	4dd\	[ > ]]	32fLLL 32d\	.	32aa-XLLL 32a-X\	.	32dddLLL 32dd\	[ sf >	.	4BBn/	.	.	.	4dd 4d/	.	4Bn 4BBn\	.	4a-X/	4f\	[ >	(4dd|/	4a-X\	[ sf >	(4aa-X\	.	(4ddd\	[ sf >
32BB/	.	32BByy/	.	.	.	.	.	.	.	.	.	.	32f 32d\	.	32aa- 32a-\	.	32ddd 32dd\	.	.	.	.	.	.	.	.	.	.	.	.	.	.	.	.	.	.	.	.
32BB/	.	32BByy/	.	.	.	.	.	.	.	.	.	.	32f 32d\	.	32aa- 32a-\	.	32ddd 32dd\	.	.	.	.	.	.	.	.	.	.	.	.	.	.	.	.	.	.	.	.
32BB/	.	32BByy/	.	.	.	.	.	.	.	.	.	.	32f 32d\	.	32aa- 32a-\	.	32ddd 32dd\	.	.	.	.	.	.	.	.	.	.	.	.	.	.	.	.	.	.	.	.
32BB/	.	32BByy/	.	.	.	.	.	.	.	.	.	.	32f 32d\	.	32aa- 32a-\	.	32ddd 32dd\	.	.	.	.	.	.	.	.	.	.	.	.	.	.	.	.	.	.	.	.
32BB/	.	32BByy/	.	.	.	.	.	.	.	.	.	.	32f 32d\	.	32aa- 32a-\	.	32ddd 32dd\	.	.	.	.	.	.	.	.	.	.	.	.	.	.	.	.	.	.	.	.
32BB/	.	32BByy/	.	.	.	.	.	.	.	.	.	.	32f 32d\	.	32aa- 32a-\	.	32ddd 32dd\	.	.	.	.	.	.	.	.	.	.	.	.	.	.	.	.	.	.	.	.
32BB/JJJ	.	32BByy/JJJ	.	.	.	.	.	.	.	.	.	.	32fJJJ 32d\	.	32aa-JJJ 32a-\	.	32dddJJJ 32dd\	.	.	.	.	.	.	.	.	.	.	.	.	.	.	.	.	.	.	.	.
=31	=31	=31	=31	=31	=31	=31	=31	=31	=31	=31	=31	=31	=31	=31	=31	=31	=31	=31	=31	=31	=31	=31	=31	=31	=31	=31	=31	=31	=31	=31	=31	=31	=31	=31	=31	=31	=31
!	!	!	!	!	!	!	!	!	!	!	!	!	!	!	!	!	!	!	!	!	!	!	!	!	!	!	!	!	!	!	!	!	!	!	!LO:DY:a	!	!
32C/LLL	]	32Cyy/LLL	]	2C/	cno-	mo-	.	2f\	.	2an/	(4cc\	.	32fLLL 32c\	.	32aanLLL 32an\	.	32cccLLL 32cc\	]	2.ryy	2C/	.	2.ryy	2.ryy	2cc 2c/	f	2c 2C\	f	2an/	2f\	] f	(4cc/)	2an\	] f	2aan\)	f	4ccc\	]
32C/	.	32Cyy/	.	.	.	.	.	.	.	.	.	.	32f 32c\	.	32aa 32a\	.	32ccc 32cc\	.	.	.	.	.	.	.	.	.	.	.	.	.	.	.	.	.	.	.	.
32C/	.	32Cyy/	.	.	.	.	.	.	.	.	.	.	32f 32c\	.	32aa 32a\	.	32ccc 32cc\	.	.	.	.	.	.	.	.	.	.	.	.	.	.	.	.	.	.	.	.
32C/	.	32Cyy/	.	.	.	.	.	.	.	.	.	.	32f 32c\	.	32aa 32a\	.	32ccc 32cc\	.	.	.	.	.	.	.	.	.	.	.	.	.	.	.	.	.	.	.	.
32C/	.	32Cyy/	.	.	.	.	.	.	.	.	.	.	32f 32c\	.	32aa 32a\	.	32ccc 32cc\	.	.	.	.	.	.	.	.	.	.	.	.	.	.	.	.	.	.	.	.
32C/	.	32Cyy/	.	.	.	.	.	.	.	.	.	.	32f 32c\	.	32aa 32a\	.	32ccc 32cc\	.	.	.	.	.	.	.	.	.	.	.	.	.	.	.	.	.	.	.	.
32C/	.	32Cyy/	.	.	.	.	.	.	.	.	.	.	32f 32c\	.	32aa 32a\	.	32ccc 32cc\	.	.	.	.	.	.	.	.	.	.	.	.	.	.	.	.	.	.	.	.
32C/	.	32Cyy/	.	.	.	.	.	.	.	.	.	.	32f 32c\	.	32aa 32a\	.	32cccJJJ 32cc\	.	.	.	.	.	.	.	.	.	.	.	.	.	.	.	.	.	.	.	.
32C/	.	32Cyy/	.	.	.	.	.	.	.	.	4ff\)	.	32f 32c\	.	32aa 32a\	.	32fffLLL 32ff\	.	.	.	.	.	.	.	.	.	.	.	.	.	4ff/	.	.	.	.	4fff\	.
32C/	.	32Cyy/	.	.	.	.	.	.	.	.	.	.	32f 32c\	.	32aa 32a\	.	32fff 32ff\	.	.	.	.	.	.	.	.	.	.	.	.	.	.	.	.	.	.	.	.
32C/	.	32Cyy/	.	.	.	.	.	.	.	.	.	.	32f 32c\	.	32aa 32a\	.	32fff 32ff\	.	.	.	.	.	.	.	.	.	.	.	.	.	.	.	.	.	.	.	.
32C/	.	32Cyy/	.	.	.	.	.	.	.	.	.	.	32f 32c\	.	32aa 32a\	.	32fff 32ff\	.	.	.	.	.	.	.	.	.	.	.	.	.	.	.	.	.	.	.	.
32C/	.	32Cyy/	.	.	.	.	.	.	.	.	.	.	32f 32c\	.	32aa 32a\	.	32fff 32ff\	.	.	.	.	.	.	.	.	.	.	.	.	.	.	.	.	.	.	.	.
32C/	.	32Cyy/	.	.	.	.	.	.	.	.	.	.	32f 32c\	.	32aa 32a\	.	32fff 32ff\	.	.	.	.	.	.	.	.	.	.	.	.	.	.	.	.	.	.	.	.
32C/	.	32Cyy/	.	.	.	.	.	.	.	.	.	.	32f 32c\	.	32aa 32a\	.	32fff 32ff\	.	.	.	.	.	.	.	.	.	.	.	.	.	.	.	.	.	.	.	.
32C/JJJ	.	32Cyy/JJJ	.	.	.	.	.	.	.	.	.	.	32f 32c\	.	32aaJJJ 32a\	.	32fffJJJ 32ff\	.	.	.	.	.	.	.	.	.	.	.	.	.	.	.	.	.	.	.	.
32F\LLL	.	32Fyy\LLL	.	8F\L	-ty	-cy	.	4c\	.	4f/	4a/	.	32f 32c\	.	32ffLLL 32f\	.	32aaLLL 32a\	.	.	8F\L	.	.	.	[4cc [4c/	.	8F\L	.	4a/	4e-\	.	4a|/)	4f\	.	([4ff|\	.	4aa|\)	.
32F\	.	32Fyy\	.	.	.	.	.	.	.	.	.	.	32f 32c\	.	32ff 32f\	.	32aa 32a\	.	.	.	.	.	.	.	.	.	.	.	.	.	.	.	.	.	.	.	.
32F\	.	32Fyy\	.	.	.	.	.	.	.	.	.	.	32f 32c\	.	32ff 32f\	.	32aa 32a\	.	.	.	.	.	.	.	.	.	.	.	.	.	.	.	.	.	.	.	.
32F\	.	32Fyy\	.	.	.	.	.	.	.	.	.	.	32f 32c\	.	32ff 32f\	.	32aa 32a\	.	.	.	.	.	.	.	.	.	.	.	.	.	.	.	.	.	.	.	.
32A\	.	32Ayy\	.	8A\J	.	.	.	.	.	.	.	.	32f 32c\	.	32ff 32f\	.	32aa 32a\	.	.	8A\J	.	.	.	.	.	8A\J	.	.	.	.	.	.	.	.	.	.	.
32A\	.	32Ayy\	.	.	.	.	.	.	.	.	.	.	32f 32c\	.	32ff 32f\	.	32aa 32a\	.	.	.	.	.	.	.	.	.	.	.	.	.	.	.	.	.	.	.	.
32A\	.	32Ayy\	.	.	.	.	.	.	.	.	.	.	32f 32c\	.	32ff 32f\	.	32aa 32a\	.	.	.	.	.	.	.	.	.	.	.	.	.	.	.	.	.	.	.	.
32A\JJJ	.	32Ayy\JJJ	.	.	.	.	.	.	.	.	.	.	32fJJJ 32c\	.	32ffJJJ 32f\	.	32aaJJJ 32a\	.	.	.	.	.	.	.	.	.	.	.	.	.	.	.	.	.	.	.	.
*	*	*	*	*	*	*	*	*	*	*	*	*	*	*	*	*	*	*	*	*	*	*	*	*	*	*	*	*v	*v	*	*	*	*	*	*	*	*
=32	=32	=32	=32	=32	=32	=32	=32	=32	=32	=32	=32	=32	=32	=32	=32	=32	=32	=32	=32	=32	=32	=32	=32	=32	=32	=32	=32	=32	=32	=32	=32	=32	=32	=32	=32	=32
*	*	*	*	*	*	*	*	*^	*	*	*	*	*	*	*	*	*	*	*	*	*	*	*	*	*	*	*	*	*	*	*	*	*	*	*	*
32c\LLL	.	32cyy\LLL	.	2c\	wzmac-	u-	.	2c/	2c\	.	(>4f/	2g/	.	32gLLL 32c\	.	32ffLLL 32f\	.	32ggLLL 32g\	.	2.ryy	2c\	.	2.ryy	2.ryy	4cc] 4c/]	.	2c\	.	2g 2c/	.	2g/	4f\	.	4ff\]	.	(2gg\	.
32c\	.	32cyy\	.	.	.	.	.	.	.	.	.	.	.	32g 32c\	.	32ff 32f\	.	32gg 32g\	.	.	.	.	.	.	.	.	.	.	.	.	.	.	.	.	.	.	.
32c\	.	32cyy\	.	.	.	.	.	.	.	.	.	.	.	32g 32c\	.	32ff 32f\	.	32gg 32g\	.	.	.	.	.	.	.	.	.	.	.	.	.	.	.	.	.	.	.
32c\	.	32cyy\	.	.	.	.	.	.	.	.	.	.	.	32g 32c\	.	32ff 32f\	.	32gg 32g\	.	.	.	.	.	.	.	.	.	.	.	.	.	.	.	.	.	.	.
32c\	.	32cyy\	.	.	.	.	.	.	.	.	.	.	.	32g 32c\	.	32ff 32f\	.	32gg 32g\	.	.	.	.	.	.	.	.	.	.	.	.	.	.	.	.	.	.	.
32c\	.	32cyy\	.	.	.	.	.	.	.	.	.	.	.	32g 32c\	.	32ff 32f\	.	32gg 32g\	.	.	.	.	.	.	.	.	.	.	.	.	.	.	.	.	.	.	.
32c\	.	32cyy\	.	.	.	.	.	.	.	.	.	.	.	32g 32c\	.	32ff 32f\	.	32gg 32g\	.	.	.	.	.	.	.	.	.	.	.	.	.	.	.	.	.	.	.
32c\	.	32cyy\	.	.	.	.	.	.	.	.	.	.	.	32g 32c\	.	32ffJJJ 32f\	.	32gg 32g\	.	.	.	.	.	.	.	.	.	.	.	.	.	.	.	.	.	.	.
32c\	.	32cyy\	.	.	.	.	.	.	.	.	8e/L	.	.	32g 32c\	.	32eeLLL 32e\	.	32gg 32g\	.	.	.	.	.	.	8ccL 8c/	.	.	.	.	.	.	8e\L	.	8ee\L	.	.	.
32c\	.	32cyy\	.	.	.	.	.	.	.	.	.	.	.	32g 32c\	.	32ee 32e\	.	32gg 32g\	.	.	.	.	.	.	.	.	.	.	.	.	.	.	.	.	.	.	.
32c\	.	32cyy\	.	.	.	.	.	.	.	.	.	.	.	32g 32c\	.	32ee 32e\	.	32gg 32g\	.	.	.	.	.	.	.	.	.	.	.	.	.	.	.	.	.	.	.
32c\	.	32cyy\	.	.	.	.	.	.	.	.	.	.	.	32g 32c\	.	32ee 32e\	.	32gg 32g\	.	.	.	.	.	.	.	.	.	.	.	.	.	.	.	.	.	.	.
32c\	.	32cyy\	.	.	.	.	.	.	.	.	8d/J)	.	.	32g 32c\	.	32dd 32d\	.	32gg 32g\	.	.	.	.	.	.	8ccJ 8c/	.	.	.	.	.	.	8d\J	.	8dd\J	.	.	.
32c\	.	32cyy\	.	.	.	.	.	.	.	.	.	.	.	32g 32c\	.	32dd 32d\	.	32gg 32g\	.	.	.	.	.	.	.	.	.	.	.	.	.	.	.	.	.	.	.
32c\	.	32cyy\	.	.	.	.	.	.	.	.	.	.	.	32g 32c\	.	32dd 32d\	.	32gg 32g\	.	.	.	.	.	.	.	.	.	.	.	.	.	.	.	.	.	.	.
32c\JJJ	.	32cyy\JJJ	.	.	.	.	.	.	.	.	.	.	.	32g 32c\	.	32ddJJJ 32d\	.	32ggJJJ 32g\	.	.	.	.	.	.	.	.	.	.	.	.	.	.	.	.	.	.	.
32C/LLL	.	32Cyy/LLL	.	4C/	-niay-	-dziel	.	4c/	4c\	.	4e/	4cc\	.	32g 32c\	.	32eeLLL 32e\	.	32cccLLL 32cc\	.	.	4C/	.	.	.	4cc 4c/	.	4C/	.	4g 4c/	.	4cc/	4e\	.	4ee\)	.	4ccc\)	.
32C/	.	32Cyy/	.	.	.	.	.	.	.	.	.	.	.	32g 32c\	.	32ee 32e\	.	32ccc 32cc\	.	.	.	.	.	.	.	.	.	.	.	.	.	.	.	.	.	.	.
32C/	.	32Cyy/	.	.	.	.	.	.	.	.	.	.	.	32g 32c\	.	32ee 32e\	.	32ccc 32cc\	.	.	.	.	.	.	.	.	.	.	.	.	.	.	.	.	.	.	.
32C/	.	32Cyy/	.	.	.	.	.	.	.	.	.	.	.	32g 32c\	.	32ee 32e\	.	32ccc 32cc\	.	.	.	.	.	.	.	.	.	.	.	.	.	.	.	.	.	.	.
32C/	.	32Cyy/	.	.	.	.	.	.	.	.	.	.	.	32g 32c\	.	32ee 32e\	.	32ccc 32cc\	.	.	.	.	.	.	.	.	.	.	.	.	.	.	.	.	.	.	.
32C/	.	32Cyy/	.	.	.	.	.	.	.	.	.	.	.	32g 32c\	.	32ee 32e\	.	32ccc 32cc\	.	.	.	.	.	.	.	.	.	.	.	.	.	.	.	.	.	.	.
32C/	.	32Cyy/	.	.	.	.	.	.	.	.	.	.	.	32g 32c\	.	32ee 32e\	.	32ccc 32cc\	.	.	.	.	.	.	.	.	.	.	.	.	.	.	.	.	.	.	.
32C/JJJ	.	32Cyy/JJJ	.	.	.	.	.	.	.	.	.	.	.	32gJJJ 32c\	.	32eeJJJ 32e\	.	32cccJJJ 32cc\	.	.	.	.	.	.	.	.	.	.	.	.	.	.	.	.	.	.	.
*Xtremolo	*	*Xtremolo	*	*	*	*	*	*	*	*	*	*	*	*Xtremolo	*	*Xtremolo	*	*Xtremolo	*	*	*	*	*	*	*	*	*	*	*	*	*	*	*	*	*	*	*
*	*	*	*	*	*	*	*	*v	*v	*	*	*	*	*	*	*	*	*	*	*	*	*	*	*	*	*	*	*	*	*	*	*	*	*	*	*	*
!!LO:PB:g=original
=33	=33	=33	=33	=33	=33	=33	=33	=33	=33	=33	=33	=33	=33	=33	=33	=33	=33	=33	=33	=33	=33	=33	=33	=33	=33	=33	=33	=33	=33	=33	=33	=33	=33	=33	=33	=33
*	*	*	*	*	*	*	*	*	*	*	*	*	*	*	*	*	*	*	*	*	*	*	*	*^	*	*^	*	*	*	*	*	*	*	*	*	*
8F\	.	8FFyy/	.	4F\	-żar.	Twój.	.	4F/	.	4f/	4f/	.	8f\	.	8ff 8f\	.	8ff 8f\	.	2.ryy	8F\	.	2.ryy	2.ryy	8f/	8f\	.	8F/	8F\	.	8fL 8F/	.	8f/	8f\	.	8ff\L	.	8ff\L	.
8r	.	8ryy	.	.	.	.	.	.	.	.	.	.	8r	.	8r	.	8r	.	.	8r	.	.	.	8r	2ryy	.	8r	2ryy	.	16r	.	16r	8ryy	.	16r	.	16r	.
.	.	.	.	.	.	.	.	.	.	.	.	.	.	.	.	.	.	.	.	.	.	.	.	.	.	.	.	.	.	16f|Jk 16F/	.	16cc 16a\	.	.	16ff\Jk	.	16ff|\Jk	<
4r	.	4ryy	.	4r	.	.	.	4r	.	4r	4r	.	4r	.	4r	.	4r	.	.	4r	.	.	.	4r	.	.	4r	.	.	[2f [2F/	.	2dd/	4b-\	.	[2ff\	.	4gg|\	.
4r	.	4ryy	.	4r	.	.	.	4r	.	4r	4r	.	4r	.	4r	.	4r	.	.	4r	.	.	.	4r	.	.	4r	.	.	.	.	.	4bn\	.	.	.	4aa-X|\	[
.	.	.	.	.	.	.	.	.	.	.	.	.	.	.	.	.	.	.	.	.	.	.	.	.	8ryy	.	.	8ryy	.	.	.	.	.	.	.	.	.	.
*	*	*	*	*	*	*	*	*	*	*	*	*	*	*	*	*	*	*	*	*	*	*	*	*	*	*	*v	*v	*	*	*	*	*	*	*	*	*	*
=34	=34	=34	=34	=34	=34	=34	=34	=34	=34	=34	=34	=34	=34	=34	=34	=34	=34	=34	=34	=34	=34	=34	=34	=34	=34	=34	=34	=34	=34	=34	=34	=34	=34	=34	=34	=34	=34
2.r	.	2.r	.	2.r	.	.	.	2.r	.	2.r	2.r	.	2.r	.	2.r	.	2.r	.	2.ryy	2.r	.	2.ryy	2.ryy	4r	2ryy\	.	4r	.	2f] 2F/]	.	2cc/	2cc\	.	2ff\]	.	(2aan\	>
.	.	.	.	.	.	.	.	.	.	.	.	.	.	.	.	.	.	.	.	.	.	.	.	4r	.	.	(4F\	.	.	.	.	.	.	.	.	.	.
.	.	.	.	.	.	.	.	.	.	.	.	.	.	.	.	.	.	.	.	.	.	.	.	(4f/	[4f\	.	4A\	.	4a 4A/	.	4cc/	4cc\	.	([4ff\	.	4ccc\)	]]
=35	=35	=35	=35	=35	=35	=35	=35	=35	=35	=35	=35	=35	=35	=35	=35	=35	=35	=35	=35	=35	=35	=35	=35	=35	=35	=35	=35	=35	=35	=35	=35	=35	=35	=35	=35	=35	=35
2.r	.	2.r	.	2.r	.	.	.	2.r	.	2.r	2.r	.	2.r	.	2.r	.	2.r	.	2.ryy	4r	.	2.ryy	2.ryy	2.g/	4f\]	.	2c\	.	2.g 2.c/	.	2.cc/	2.cc\	.	4ff\]	.	(2gg\	.
.	.	.	.	.	.	.	.	.	.	.	.	.	.	.	.	.	.	.	.	4r	.	.	.	.	8e\L	.	.	.	.	.	.	.	.	8ee\L	.	.	.
.	.	.	.	.	.	.	.	.	.	.	.	.	.	.	.	.	.	.	.	.	.	.	.	.	8d\J	.	.	.	.	.	.	.	.	8dd\J	.	.	.
.	.	.	.	.	.	.	.	.	.	.	.	.	.	.	.	.	.	.	.	4C/	.	.	.	.	4e\	.	4C/)	.	.	.	.	.	.	4ee\	.	4ccc\)	.
=36	=36	=36	=36	=36	=36	=36	=36	=36	=36	=36	=36	=36	=36	=36	=36	=36	=36	=36	=36	=36	=36	=36	=36	=36	=36	=36	=36	=36	=36	=36	=36	=36	=36	=36	=36	=36	=36
*	*	*	*	*	*	*	*	*	*	*	*	*	*	*	*	*	*	*	*	*	*	*	*	*	*	*	*	*	*^	*	*	*	*	*	*	*	*
8.r	.	8.r	.	2.r	.	.	.	2.r	.	2.r	2.r	.	8.r	.	8.r	.	8.r	.	2.ryy	8F\	.	2.ryy	2.ryy	8a/)	8f\	.	8F\	.	8a/	8f\	.	8cc/	8a\	.	8ff\)	.	8aa 8ff\	.
.	.	.	.	.	.	.	.	.	.	.	.	.	.	.	.	.	.	.	.	8r	.	.	.	8r	2ryy	.	8r	.	8r	2ryy	.	8r	2ryy	.	8r	.	8r	.
!	!	!	!	!	!	!	!	!	!	!	!	!	!	!	!	!	!	!LO:DY:a	!	!	!	!	!	!	!	!	!	!	!	!	!	!	!	!	!	!	!	!
16F|\	.	16A|\	p <	.	.	.	.	.	.	.	.	.	16f| 16A\	.	16c/	.	16f|/	p	.	.	.	.	.	.	.	.	.	.	.	.	.	.	.	.	.	.	.	.
[2F\	.	(4B-\	.	.	.	.	.	.	.	.	.	.	[4f 4B-\	.	2d/	.	(>4g/	<	.	4r	.	.	.	4r	.	.	4r	.	4r	.	.	4r	.	.	4r	.	4r	.
.	.	4Bn\)	[[	.	.	.	.	.	.	.	.	.	4f] 4Bn\	.	.	.	4a-X/)	[[	.	4r	.	.	.	4r	.	.	4r	.	4r	.	.	4r	.	.	4r	.	4r	.
.	.	.	.	.	.	.	.	.	.	.	.	.	.	.	.	.	.	.	.	.	.	.	.	.	8ryy	.	.	.	.	8ryy	.	.	8ryy	.	.	.	.	.
*	*	*	*	*	*	*	*	*	*	*	*	*	*	*	*	*	*	*	*	*	*	*	*	*	*	*	*	*	*v	*v	*	*	*	*	*	*	*	*
*	*	*	*	*	*	*	*	*	*	*	*	*	*	*	*	*	*	*	*	*	*	*	*	*v	*v	*	*	*	*	*	*v	*v	*	*	*	*	*
=37	=37	=37	=37	=37	=37	=37	=37	=37	=37	=37	=37	=37	=37	=37	=37	=37	=37	=37	=37	=37	=37	=37	=37	=37	=37	=37	=37	=37	=37	=37	=37	=37	=37	=37	=37
4F\]	.	4c\	.	2.r	.	.	.	2.r	.	2.r	2.r	.	2f 2c\	.	2.c/	.	2an/	>	2.ryy	2.ryy	.	2.ryy	2.ryy	2.ryy	.	2.ryy	.	2.ryy	.	2.ryy	.	2.ryy	.	2.ryy	.
4FF/	.	4FF/	.	.	.	.	.	.	.	.	.	.	.	.	.	.	.	.	.	.	.	.	.	.	.	.	.	.	.	.	.	.	.	.	.
4AA/	.	4AA/	.	.	.	.	.	.	.	.	.	.	4F/	.	.	.	(>[4f/	]	.	.	.	.	.	.	.	.	.	.	.	.	.	.	.	.	.
=38	=38	=38	=38	=38	=38	=38	=38	=38	=38	=38	=38	=38	=38	=38	=38	=38	=38	=38	=38	=38	=38	=38	=38	=38	=38	=38	=38	=38	=38	=38	=38	=38	=38	=38	=38
2.C/	.	2.C/	.	2.r	.	.	.	2.r	.	2.r	2.r	.	2.G/	.	2.B-/	.	4f/]	.	2.ryy	2.ryy	.	2.ryy	2.ryy	2.ryy	.	2.ryy	.	2.ryy	.	2.ryy	.	2.ryy	.	2.ryy	.
.	.	.	.	.	.	.	.	.	.	.	.	.	.	.	.	.	8e/L	.	.	.	.	.	.	.	.	.	.	.	.	.	.	.	.	.	.
.	.	.	.	.	.	.	.	.	.	.	.	.	.	.	.	.	8d/J	.	.	.	.	.	.	.	.	.	.	.	.	.	.	.	.	.	.
.	.	.	.	.	.	.	.	.	.	.	.	.	.	.	.	.	4e/)	.	.	.	.	.	.	.	.	.	.	.	.	.	.	.	.	.	.
!!LO:PB:g=original
=39	=39	=39	=39	=39	=39	=39	=39	=39	=39	=39	=39	=39	=39	=39	=39	=39	=39	=39	=39	=39	=39	=39	=39	=39	=39	=39	=39	=39	=39	=39	=39	=39	=39	=39	=39
*>D1	*>D1	*>D1	*>D1	*>D1	*>D1	*>D1	*>D1	*>D1	*>D1	*>D1	*>D1	*>D1	*>D1	*>D1	*>D1	*>D1	*>D1	*>D1	*>D1	*>D1	*>D1	*>D1	*>D1	*>D1	*>D1	*>D1	*>D1	*>D1	*>D1	*>D1	*>D1	*>D1	*>D1	*>D1	*>D1
2F\	.	2Fyy\	.	2.r	.	.	.	2.r	.	2.r	2.r	.	2F/	.	2A/	.	2f/	.	2.ryy	2.r	.	2.ryy	2.ryy	2.r	.	4r	.	2.r	.	4r	.	2.r	.	2.r	.
.	.	.	.	.	.	.	.	.	.	.	.	.	.	.	.	.	.	.	.	.	.	.	.	.	.	4r	.	.	.	4r	.	.	.	.	.
!	!LO:DY:a	!	!LO:DY:a	!	!	!	!	!	!	!	!	!	!	!	!	!	!	!	!	!	!	!	!	!	!	!	!	!	!	!	!LO:DY:a	!	!	!	!
(4D\	sf	(yy4Dyy\	sfyy	.	.	.	.	.	.	.	.	.	4G/	.	4Bn^>/	.	4f/	sf	.	.	.	.	.	.	.	(<[4G 4D\	sf	.	.	(4f (4Bn/	sf	.	.	.	.
=40	=40	=40	=40	=40	=40	=40	=40	=40	=40	=40	=40	=40	=40	=40	=40	=40	=40	=40	=40	=40	=40	=40	=40	=40	=40	=40	=40	=40	=40	=40	=40	=40	=40	=40	=40
!	!	!	!	!	!	!	!	!	!	!	!	!	!	!	!	!	!	!	!	!	!	!	!	!	!	!	!	!	!	!	!	!	!	!LO:TX:a:t=[segno]	!
4.C/)	.	4.Cyy/)	.	2.r	.	.	.	2.r	.	2.r	2.r	.	4.G/	.	4.c/	.	4.e/	.	2.ryy	2.r	.	2.ryy	2.ryy	2.r	.	4.G] 4.C\)	.	4r	.	4.e 4.c/))	.	2.r	.	2.r	.
.	.	.	.	.	.	.	.	.	.	.	.	.	.	.	.	.	.	.	.	.	.	.	.	.	.	.	.	8r	.	.	.	.	.	.	.
8r	.	8ryy	.	.	.	.	.	.	.	.	.	.	8r	.	8r	.	8r	.	.	.	.	.	.	.	.	8r	.	8b-L 8g\	.	8r	.	.	.	.	.
!	!	!	!	!	!	!	!	!	!	!	!	!	!	!	!	!	!LO:TX:a:t=[segno]	!	!	!	!	!	!	!	!	!	!	!	!	!	!	!	!	!	!
4r	.	4ryy	.	.	.	.	.	.	.	.	.	.	4r	.	4r	.	4r	.	.	.	.	.	.	.	.	4r	.	8a 8f\	.	4r	.	.	.	.	.
.	.	.	.	.	.	.	.	.	.	.	.	.	.	.	.	.	.	.	.	.	.	.	.	.	.	.	.	8gJ 8c\	.	.	.	.	.	.	.
=41||	=41||	=41||	=41||	=41||	=41||	=41||	=41||	=41||	=41||	=41||	=41||	=41||	=41||	=41||	=41||	=41||	=41||	=41||	=41||	=41||	=41||	=41||	=41||	=41||	=41||	=41||	=41||	=41||	=41||	=41||	=41||	=41||	=41||	=41||	=41||
*>D2	*>D2	*>D2	*>D2	*>D2	*>D2	*>D2	*>D2	*>D2	*>D2	*>D2	*>D2	*>D2	*>D2	*>D2	*>D2	*>D2	*>D2	*>D2	*>D2	*>D2	*>D2	*>D2	*>D2	*>D2	*>D2	*>D2	*>D2	*>D2	*>D2	*>D2	*>D2	*>D2	*>D2	*>D2	*>D2
*	*	*	*	*	*	*	*	*	*	*	*	*	*tremolo	*	*tremolo	*	*tremolo	*	*	*	*	*	*	*	*	*	*	*	*	*	*	*	*	*	*
!	!	!	!	!	!	!	!	!	!	!	!	!	!	!	!	!	!	!	!	!	!	!	!	!	!	!	!	!	!	!	!	!	!	!LO:TX:a:t=2	!
4F|\	.	4Fyy|\	.	2.ryy	.	.	.	2.ryy	.	2.ryy	2.ryy	.	32F/LLL	.	32A/LLL	.	32f/LLL	<	2.ryy	2.ryy	.	2.ryy	2.ryy	2.ryy	.	2.ryy	.	2.ryy	.	2.ryy	.	2.ryy	.	2.ryy	.
.	.	.	.	.	.	.	.	.	.	.	.	.	32F/	.	32A/	.	32f/	.	.	.	.	.	.	.	.	.	.	.	.	.	.	.	.	.	.
.	.	.	.	.	.	.	.	.	.	.	.	.	32F/	.	32A/	.	32f/	.	.	.	.	.	.	.	.	.	.	.	.	.	.	.	.	.	.
.	.	.	.	.	.	.	.	.	.	.	.	.	32F/	.	32A/	.	32f/	.	.	.	.	.	.	.	.	.	.	.	.	.	.	.	.	.	.
.	.	.	.	.	.	.	.	.	.	.	.	.	32F/	.	32A/	.	32f/	.	.	.	.	.	.	.	.	.	.	.	.	.	.	.	.	.	.
.	.	.	.	.	.	.	.	.	.	.	.	.	32F/	.	32A/	.	32f/	.	.	.	.	.	.	.	.	.	.	.	.	.	.	.	.	.	.
.	.	.	.	.	.	.	.	.	.	.	.	.	32F/	.	32A/	.	32f/	.	.	.	.	.	.	.	.	.	.	.	.	.	.	.	.	.	.
.	.	.	.	.	.	.	.	.	.	.	.	.	32F/	.	32A/	.	32f/	.	.	.	.	.	.	.	.	.	.	.	.	.	.	.	.	.	.
(4F\	.	(yy4Fyy\	.	.	.	.	.	.	.	.	.	.	32F/	.	32A/	.	32f/	.	.	.	.	.	.	.	.	.	.	.	.	.	.	.	.	.	.
.	.	.	.	.	.	.	.	.	.	.	.	.	32F/	.	32A/	.	32f/	.	.	.	.	.	.	.	.	.	.	.	.	.	.	.	.	.	.
.	.	.	.	.	.	.	.	.	.	.	.	.	32F/	.	32A/	.	32f/	.	.	.	.	.	.	.	.	.	.	.	.	.	.	.	.	.	.
.	.	.	.	.	.	.	.	.	.	.	.	.	32F/	.	32A/	.	32f/	.	.	.	.	.	.	.	.	.	.	.	.	.	.	.	.	.	.
.	.	.	.	.	.	.	.	.	.	.	.	.	32F/	.	32A/	.	32f/	.	.	.	.	.	.	.	.	.	.	.	.	.	.	.	.	.	.
.	.	.	.	.	.	.	.	.	.	.	.	.	32F/	.	32A/	.	32f/	.	.	.	.	.	.	.	.	.	.	.	.	.	.	.	.	.	.
.	.	.	.	.	.	.	.	.	.	.	.	.	32F/	.	32A/	.	32f/	.	.	.	.	.	.	.	.	.	.	.	.	.	.	.	.	.	.
.	.	.	.	.	.	.	.	.	.	.	.	.	32F/	.	32A/	.	32f/	.	.	.	.	.	.	.	.	.	.	.	.	.	.	.	.	.	.
4C\	.	4Cyy\	.	.	.	.	.	.	.	.	.	.	32F/	.	32A/	.	32f/	.	.	.	.	.	.	.	.	.	.	.	.	.	.	.	.	.	.
.	.	.	.	.	.	.	.	.	.	.	.	.	32F/	.	32A/	.	32f/	.	.	.	.	.	.	.	.	.	.	.	.	.	.	.	.	.	.
.	.	.	.	.	.	.	.	.	.	.	.	.	32F/	.	32A/	.	32f/	.	.	.	.	.	.	.	.	.	.	.	.	.	.	.	.	.	.
.	.	.	.	.	.	.	.	.	.	.	.	.	32F/	.	32A/	.	32f/	.	.	.	.	.	.	.	.	.	.	.	.	.	.	.	.	.	.
.	.	.	.	.	.	.	.	.	.	.	.	.	32F/	.	32A/	.	32f/	.	.	.	.	.	.	.	.	.	.	.	.	.	.	.	.	.	.
.	.	.	.	.	.	.	.	.	.	.	.	.	32F/	.	32A/	.	32f/	.	.	.	.	.	.	.	.	.	.	.	.	.	.	.	.	.	.
.	.	.	.	.	.	.	.	.	.	.	.	.	32F/	.	32A/	.	32f/	.	.	.	.	.	.	.	.	.	.	.	.	.	.	.	.	.	.
.	.	.	.	.	.	.	.	.	.	.	.	.	32F/JJJ	.	32A/JJJ	.	32f/JJJ	[[	.	.	.	.	.	.	.	.	.	.	.	.	.	.	.	.	.
=42	=42	=42	=42	=42	=42	=42	=42	=42	=42	=42	=42	=42	=42	=42	=42	=42	=42	=42	=42	=42	=42	=42	=42	=42	=42	=42	=42	=42	=42	=42	=42	=42	=42	=42	=42
4AA/	.	4AAyy/	.	2.ryy	.	.	.	2.ryy	.	2.ryy	2.ryy	.	32F/LLL	.	32A/LLL	.	32f/LLL	>	2.ryy	2.ryy	.	2.ryy	2.ryy	2.ryy	.	2.ryy	.	2.ryy	.	2.ryy	.	2.ryy	.	2.ryy	.
.	.	.	.	.	.	.	.	.	.	.	.	.	32F/	.	32A/	.	32f/	.	.	.	.	.	.	.	.	.	.	.	.	.	.	.	.	.	.
.	.	.	.	.	.	.	.	.	.	.	.	.	32F/	.	32A/	.	32f/	.	.	.	.	.	.	.	.	.	.	.	.	.	.	.	.	.	.
.	.	.	.	.	.	.	.	.	.	.	.	.	32F/	.	32A/	.	32f/	.	.	.	.	.	.	.	.	.	.	.	.	.	.	.	.	.	.
.	.	.	.	.	.	.	.	.	.	.	.	.	32F/	.	32A/	.	32f/	.	.	.	.	.	.	.	.	.	.	.	.	.	.	.	.	.	.
.	.	.	.	.	.	.	.	.	.	.	.	.	32F/	.	32A/	.	32f/	.	.	.	.	.	.	.	.	.	.	.	.	.	.	.	.	.	.
.	.	.	.	.	.	.	.	.	.	.	.	.	32F/	.	32A/	.	32f/	.	.	.	.	.	.	.	.	.	.	.	.	.	.	.	.	.	.
.	.	.	.	.	.	.	.	.	.	.	.	.	32F/	.	32A/	.	32f/	.	.	.	.	.	.	.	.	.	.	.	.	.	.	.	.	.	.
4C/	.	4Cyy/	.	.	.	.	.	.	.	.	.	.	32F/	.	32A/	.	32f/	.	.	.	.	.	.	.	.	.	.	.	.	.	.	.	.	.	.
.	.	.	.	.	.	.	.	.	.	.	.	.	32F/	.	32A/	.	32f/	.	.	.	.	.	.	.	.	.	.	.	.	.	.	.	.	.	.
.	.	.	.	.	.	.	.	.	.	.	.	.	32F/	.	32A/	.	32f/	.	.	.	.	.	.	.	.	.	.	.	.	.	.	.	.	.	.
.	.	.	.	.	.	.	.	.	.	.	.	.	32F/	.	32A/	.	32f/	.	.	.	.	.	.	.	.	.	.	.	.	.	.	.	.	.	.
.	.	.	.	.	.	.	.	.	.	.	.	.	32F/	.	32A/	.	32f/	.	.	.	.	.	.	.	.	.	.	.	.	.	.	.	.	.	.
.	.	.	.	.	.	.	.	.	.	.	.	.	32F/	.	32A/	.	32f/	.	.	.	.	.	.	.	.	.	.	.	.	.	.	.	.	.	.
.	.	.	.	.	.	.	.	.	.	.	.	.	32F/	.	32A/	.	32f/	.	.	.	.	.	.	.	.	.	.	.	.	.	.	.	.	.	.
.	.	.	.	.	.	.	.	.	.	.	.	.	32F/	.	32A/	.	32f/	.	.	.	.	.	.	.	.	.	.	.	.	.	.	.	.	.	.
4AA/	.	4AAyy/	.	.	.	.	.	.	.	.	.	.	32F/	.	32A/	.	32f/	.	.	.	.	.	.	.	.	.	.	.	.	.	.	.	.	.	.
.	.	.	.	.	.	.	.	.	.	.	.	.	32F/	.	32A/	.	32f/	.	.	.	.	.	.	.	.	.	.	.	.	.	.	.	.	.	.
.	.	.	.	.	.	.	.	.	.	.	.	.	32F/	.	32A/	.	32f/	.	.	.	.	.	.	.	.	.	.	.	.	.	.	.	.	.	.
.	.	.	.	.	.	.	.	.	.	.	.	.	32F/	.	32A/	.	32f/	.	.	.	.	.	.	.	.	.	.	.	.	.	.	.	.	.	.
.	.	.	.	.	.	.	.	.	.	.	.	.	32F/	.	32A/	.	32f/	.	.	.	.	.	.	.	.	.	.	.	.	.	.	.	.	.	.
.	.	.	.	.	.	.	.	.	.	.	.	.	32F/	.	32A/	.	32f/	.	.	.	.	.	.	.	.	.	.	.	.	.	.	.	.	.	.
.	.	.	.	.	.	.	.	.	.	.	.	.	32F/	.	32A/	.	32f/	.	.	.	.	.	.	.	.	.	.	.	.	.	.	.	.	.	.
.	.	.	.	.	.	.	.	.	.	.	.	.	32F/JJJ	.	32A/JJJ	.	32f/JJJ	]]	.	.	.	.	.	.	.	.	.	.	.	.	.	.	.	.	.
*	*	*	*	*	*	*	*	*	*	*	*	*	*Xtremolo	*	*Xtremolo	*	*Xtremolo	*	*	*	*	*	*	*	*	*	*	*	*	*	*	*	*	*	*
=43	=43	=43	=43	=43	=43	=43	=43	=43	=43	=43	=43	=43	=43	=43	=43	=43	=43	=43	=43	=43	=43	=43	=43	=43	=43	=43	=43	=43	=43	=43	=43	=43	=43	=43	=43
4FF/)	.	4FFyy/)yy	.	2.ryy	.	.	.	2.ryy	.	2.ryy	2.ryy	.	4F/	.	4A/	.	4f/	.	2.ryy	2.ryy	.	2.ryy	2.ryy	2.ryy	.	2.ryy	.	2.ryy	.	2.ryy	.	2.ryy	.	2.ryy	.
4r	.	4ryy	.	.	.	.	.	.	.	.	.	.	4r	.	4r	.	4r	.	.	.	.	.	.	.	.	.	.	.	.	.	.	.	.	.	.
4r;	.	4ryy;	.	.	.	.	.	.	.	.	.	.	4r;	.	4r;	.	4r;	.	.	.	.	.	.	.	.	.	.	.	.	.	.	.	.	.	.
==	==	==	==	==	==	==	==	==	==	==	==	==	==	==	==	==	==	==	==	==	==	==	==	==	==	==	==	==	==	==	==	==	==	==	==
*-	*-	*-	*-	*-	*-	*-	*-	*-	*-	*-	*-	*-	*-	*-	*-	*-	*-	*-	*-	*-	*-	*-	*-	*-	*-	*-	*-	*-	*-	*-	*-	*-	*-	*-	*-
!!!system-decoration: [(<s1,s2,s3,s4,s5,s6>{g3})s10{(g4,s13)}{(s14,s15,s16,s17)}{(s18,s19)}]
!!!RDF**kern: > = above
!!!RDF**kern: < = below
!!!RDF**kern: | = vertical stroke
!!!ENC: Tomasz Grochalski
!!!END: 2021-07-31
!!!ENC: Kamil Watkowski
!!!END: 2021-09-06
